N100 ( demo.nc, processed 05/01/2012 23:58:20 by grblfeedr 0.05.23.56.30 )
N101 G00 X0Y0Z0
N102 G00X3.0Y10.0Z1.0(GCodeFastMoveXValYValZVal)
N103 G01Z0.0F30.0(GCodeLinearMoveZValFVal)
N104 G01X8.0F20.0(GCodeLinearMoveXValFVal)
N105 G01Y8.0(GCodeLinearMoveYVal)
N106 G01X3.0(GCodeLinearMoveXVal)
N107 G01Y0.0(GCodeLinearMoveYVal)
N108 G01X1.0(GCodeLinearMoveXVal)
Y8.0(GCodeLinearMoveYVal)
X0.0(GCodeLinearMoveXVal)
Y10.0(GCodeLinearMoveYVal)
X3.0(GCodeLinearMoveXVal)
N113 G00Z1.0(GCodeFastMoveZVal)
N114 G00X6.0Y5.0(GCodeFastMoveXValYVal)
N115 G01Z0.0(GCodeLinearMoveZVal)
N116 G01Y6.0(GCodeLinearMoveYVal)
N117 G01X9.0Y7.0(GCodeLinearMoveXValYVal)
N118 G01Y6.0(GCodeLinearMoveYVal)
N119 G01X8.0(GCodeLinearMoveXVal)
N120 G01Y1.0(GCodeLinearMoveYVal)
N121 G01X5.0(GCodeLinearMoveXVal)
N122 G01X6.0Y5.0(GCodeLinearMoveXValYVal)
N123 G00Z1.0(GCodeFastMoveZVal)
N124 G00X12.0(GCodeFastMoveXVal)
