( test.nc, processed 2011-12-30 14:56:42 by grblfeedr )

(Blank)
P1.0R1.5(UnrecognisedCodeG10PValRVal)
(Blank)
(UnrecognisedCodeM6)
G17G90G21(GCodeSelectPlane1GCodeAbsoluteGCodemmModeUnrecognisedCodeG54)
G00X0.0Y0.0M03(GCodeFastMoveXValYValMCodeSpindleOnClockwise)
G00Z3.0(GCodeFastMoveZVal)
G01Z1.866F100.0(GCodeLinearMoveZValFVal)
G01X0.0Y23.52Z1.866F840.0(GCodeLinearMoveXValYValZValFVal)
G01X0.985Y23.52Z1.866(GCodeLinearMoveXValYValZVal)
G01X0.985Y16.543Z1.866(GCodeLinearMoveXValYValZVal)
G01X0.985Y16.444Z2.623F100.0(GCodeLinearMoveXValYValZValFVal)
G01X0.985Y16.344Z2.716F840.0(GCodeLinearMoveXValYValZValFVal)
G01X0.985Y16.145Z2.779(GCodeLinearMoveXValYValZVal)
G01X0.985Y15.646Z2.799(GCodeLinearMoveXValYValZVal)
G01X0.985Y7.475Z2.793(GCodeLinearMoveXValYValZVal)
G01X0.985Y7.276Z2.755(GCodeLinearMoveXValYValZVal)
G01X0.985Y7.176Z2.716(GCodeLinearMoveXValYValZVal)
G01X0.985Y7.076Z2.623(GCodeLinearMoveXValYValZVal)
G01X0.985Y6.977Z1.866F100.0(GCodeLinearMoveXValYValZValFVal)
G01X0.985Y0.0Z1.866F840.0(GCodeLinearMoveXValYValZValFVal)
G01X1.97Y0.0Z1.866(GCodeLinearMoveXValYValZVal)
G01X1.97Y5.183Z1.866(GCodeLinearMoveXValYValZVal)
G01X1.97Y5.283Z2.672F100.0(GCodeLinearMoveXValYValZValFVal)
G01X1.97Y5.382Z2.75F840.0(GCodeLinearMoveXValYValZValFVal)
G01X1.97Y5.582Z2.796(GCodeLinearMoveXValYValZVal)
G01X1.97Y17.938Z2.796(GCodeLinearMoveXValYValZVal)
G01X1.97Y18.138Z2.75(GCodeLinearMoveXValYValZVal)
G01X1.97Y18.237Z2.672(GCodeLinearMoveXValYValZVal)
G01X1.97Y18.337Z1.866F100.0(GCodeLinearMoveXValYValZValFVal)
G01X1.97Y23.52Z1.866F840.0(GCodeLinearMoveXValYValZValFVal)
G01X2.954Y23.52Z1.866(GCodeLinearMoveXValYValZVal)
G01X2.954Y19.633Z1.866(GCodeLinearMoveXValYValZVal)
G01X2.954Y19.533Z2.642F100.0(GCodeLinearMoveXValYValZValFVal)
G01X2.954Y19.433Z2.749F840.0(GCodeLinearMoveXValYValZValFVal)
G01X2.954Y19.334Z2.786(GCodeLinearMoveXValYValZVal)
G01X2.954Y4.286Z2.799(GCodeLinearMoveXValYValZVal)
G01X2.954Y4.186Z2.786(GCodeLinearMoveXValYValZVal)
G01X2.954Y4.087Z2.749(GCodeLinearMoveXValYValZVal)
G01X2.954Y3.987Z2.642(GCodeLinearMoveXValYValZVal)
G01X2.954Y3.887Z1.866F100.0(GCodeLinearMoveXValYValZValFVal)
G01X2.954Y0.0Z1.866F840.0(GCodeLinearMoveXValYValZValFVal)
G01X3.939Y0.0Z1.866(GCodeLinearMoveXValYValZVal)
G01X3.939Y2.99Z1.866(GCodeLinearMoveXValYValZVal)
G01X3.939Y3.09Z2.751F100.0(GCodeLinearMoveXValYValZValFVal)
G01X3.939Y3.19Z2.792F840.0(GCodeLinearMoveXValYValZValFVal)
G01X3.939Y20.33Z2.792(GCodeLinearMoveXValYValZVal)
G01X3.939Y20.43Z2.751(GCodeLinearMoveXValYValZVal)
G01X3.939Y20.53Z1.866F100.0(GCodeLinearMoveXValYValZValFVal)
G01X3.939Y23.52Z1.866F840.0(GCodeLinearMoveXValYValZValFVal)
G01X4.924Y23.52Z1.866(GCodeLinearMoveXValYValZVal)
G01X4.924Y21.327Z1.866(GCodeLinearMoveXValYValZVal)
G01X4.924Y21.227Z2.749F100.0(GCodeLinearMoveXValYValZValFVal)
G01X4.924Y21.128Z2.793F840.0(GCodeLinearMoveXValYValZValFVal)
G01X4.924Y15.248Z2.787(GCodeLinearMoveXValYValZVal)
G01X4.924Y15.048Z2.73(GCodeLinearMoveXValYValZVal)
G01X4.924Y14.849Z2.57(GCodeLinearMoveXValYValZVal)
G01X4.924Y14.65Z2.514(GCodeLinearMoveXValYValZVal)
G01X4.924Y8.97Z2.504(GCodeLinearMoveXValYValZVal)
G01X4.924Y8.771Z2.532(GCodeLinearMoveXValYValZVal)
G01X4.924Y8.671Z2.57(GCodeLinearMoveXValYValZVal)
G01X4.924Y8.472Z2.73(GCodeLinearMoveXValYValZVal)
G01X4.924Y8.272Z2.787(GCodeLinearMoveXValYValZVal)
G01X4.924Y2.392Z2.793(GCodeLinearMoveXValYValZVal)
G01X4.924Y2.293Z2.749(GCodeLinearMoveXValYValZVal)
G01X4.924Y2.193Z1.866F100.0(GCodeLinearMoveXValYValZValFVal)
G01X4.924Y0.0Z1.866F840.0(GCodeLinearMoveXValYValZValFVal)
G01X5.908Y0.0Z1.866(GCodeLinearMoveXValYValZVal)
G01X5.908Y1.495Z1.866(GCodeLinearMoveXValYValZVal)
G01X5.908Y1.595Z2.692F100.0(GCodeLinearMoveXValYValZValFVal)
G01X5.908Y1.695Z2.777F840.0(GCodeLinearMoveXValYValZValFVal)
G01X5.908Y1.794Z2.799(GCodeLinearMoveXValYValZVal)
G01X5.908Y6.777Z2.791(GCodeLinearMoveXValYValZVal)
G01X5.908Y6.877Z2.761(GCodeLinearMoveXValYValZVal)
G01X5.908Y6.977Z2.689(GCodeLinearMoveXValYValZVal)
G01X5.908Y7.076Z2.563(GCodeLinearMoveXValYValZVal)
G01X5.908Y7.176Z2.518(GCodeLinearMoveXValYValZVal)
G01X5.908Y7.575Z2.5(GCodeLinearMoveXValYValZVal)
G01X5.908Y16.344Z2.518(GCodeLinearMoveXValYValZVal)
G01X5.908Y16.444Z2.563(GCodeLinearMoveXValYValZVal)
G01X5.908Y16.543Z2.689(GCodeLinearMoveXValYValZVal)
G01X5.908Y16.643Z2.761(GCodeLinearMoveXValYValZVal)
G01X5.908Y16.743Z2.791(GCodeLinearMoveXValYValZVal)
G01X5.908Y21.726Z2.799(GCodeLinearMoveXValYValZVal)
G01X5.908Y21.825Z2.777(GCodeLinearMoveXValYValZVal)
G01X5.908Y21.925Z2.692(GCodeLinearMoveXValYValZVal)
G01X5.908Y22.025Z1.866F100.0(GCodeLinearMoveXValYValZValFVal)
G01X5.908Y23.52Z1.866F840.0(GCodeLinearMoveXValYValZValFVal)
G01X6.893Y23.52Z1.866(GCodeLinearMoveXValYValZVal)
G01X6.893Y22.523Z1.866(GCodeLinearMoveXValYValZVal)
G01X6.893Y22.423Z2.696F100.0(GCodeLinearMoveXValYValZValFVal)
G01X6.893Y22.324Z2.78F840.0(GCodeLinearMoveXValYValZValFVal)
G01X6.893Y17.839Z2.799(GCodeLinearMoveXValYValZVal)
G01X6.893Y17.739Z2.796(GCodeLinearMoveXValYValZVal)
G01X6.893Y17.64Z2.77(GCodeLinearMoveXValYValZVal)
G01X6.893Y17.54Z2.681(GCodeLinearMoveXValYValZVal)
G01X6.893Y17.44Z2.552(GCodeLinearMoveXValYValZVal)
G01X6.893Y17.341Z2.509(GCodeLinearMoveXValYValZVal)
G01X6.893Y6.179Z2.509(GCodeLinearMoveXValYValZVal)
G01X6.893Y6.08Z2.552(GCodeLinearMoveXValYValZVal)
G01X6.893Y5.98Z2.68(GCodeLinearMoveXValYValZVal)
G01X6.893Y5.88Z2.77(GCodeLinearMoveXValYValZVal)
G01X6.893Y5.781Z2.796(GCodeLinearMoveXValYValZVal)
G01X6.893Y1.296Z2.799(GCodeLinearMoveXValYValZVal)
G01X6.893Y1.196Z2.78(GCodeLinearMoveXValYValZVal)
G01X6.893Y1.097Z2.696(GCodeLinearMoveXValYValZVal)
G01X6.893Y0.997Z1.866F100.0(GCodeLinearMoveXValYValZValFVal)
G01X6.893Y0.0Z1.866F840.0(GCodeLinearMoveXValYValZValFVal)
G01X7.878Y0.0Z1.866(GCodeLinearMoveXValYValZVal)
G01X7.878Y0.598Z1.866(GCodeLinearMoveXValYValZVal)
G01X7.878Y0.698Z2.685F100.0(GCodeLinearMoveXValYValZValFVal)
G01X7.878Y0.798Z2.779F840.0(GCodeLinearMoveXValYValZValFVal)
G01X7.878Y0.897Z2.799(GCodeLinearMoveXValYValZVal)
G01X7.878Y5.083Z2.798(GCodeLinearMoveXValYValZVal)
G01X7.878Y5.183Z2.773(GCodeLinearMoveXValYValZVal)
G01X7.878Y5.382Z2.542(GCodeLinearMoveXValYValZVal)
G01X7.878Y5.482Z2.504(GCodeLinearMoveXValYValZVal)
G01X7.878Y18.038Z2.504(GCodeLinearMoveXValYValZVal)
G01X7.878Y18.138Z2.542(GCodeLinearMoveXValYValZVal)
G01X7.878Y18.337Z2.773(GCodeLinearMoveXValYValZVal)
G01X7.878Y18.437Z2.798(GCodeLinearMoveXValYValZVal)
G01X7.878Y22.623Z2.799(GCodeLinearMoveXValYValZVal)
G01X7.878Y22.722Z2.779(GCodeLinearMoveXValYValZVal)
G01X7.878Y22.822Z2.685(GCodeLinearMoveXValYValZVal)
G01X7.878Y22.922Z1.866F100.0(GCodeLinearMoveXValYValZValFVal)
G01X7.878Y23.52Z1.866F840.0(GCodeLinearMoveXValYValZValFVal)
G01X8.862Y23.52Z1.866(GCodeLinearMoveXValYValZVal)
G01X8.862Y23.221Z1.866(GCodeLinearMoveXValYValZVal)
G01X8.862Y23.121Z2.68F100.0(GCodeLinearMoveXValYValZValFVal)
G01X8.862Y23.021Z2.779F840.0(GCodeLinearMoveXValYValZValFVal)
G01X8.862Y22.922Z2.799(GCodeLinearMoveXValYValZVal)
G01X8.862Y18.935Z2.799(GCodeLinearMoveXValYValZVal)
G01X8.862Y18.835Z2.778(GCodeLinearMoveXValYValZVal)
G01X8.862Y18.636Z2.538(GCodeLinearMoveXValYValZVal)
G01X8.862Y18.536Z2.502(GCodeLinearMoveXValYValZVal)
G01X8.862Y4.984Z2.502(GCodeLinearMoveXValYValZVal)
G01X8.862Y4.884Z2.538(GCodeLinearMoveXValYValZVal)
G01X8.862Y4.685Z2.778(GCodeLinearMoveXValYValZVal)
G01X8.862Y4.585Z2.799(GCodeLinearMoveXValYValZVal)
G01X8.862Y0.499Z2.779(GCodeLinearMoveXValYValZVal)
G01X8.862Y0.399Z2.68(GCodeLinearMoveXValYValZVal)
G01X8.862Y0.299Z1.866F100.0(GCodeLinearMoveXValYValZValFVal)
G01X8.862Y0.0Z1.866F840.0(GCodeLinearMoveXValYValZValFVal)
G01X9.847Y0.0Z1.866(GCodeLinearMoveXValYValZVal)
G01X9.847Y0.1Z1.866(GCodeLinearMoveXValYValZVal)
G01X9.847Y0.2Z2.698F100.0(GCodeLinearMoveXValYValZValFVal)
G01X9.847Y0.299Z2.783F840.0(GCodeLinearMoveXValYValZValFVal)
G01X9.847Y4.286Z2.797(GCodeLinearMoveXValYValZVal)
G01X9.847Y4.386Z2.763(GCodeLinearMoveXValYValZVal)
G01X9.847Y4.485Z2.602(GCodeLinearMoveXValYValZVal)
G01X9.847Y4.585Z2.518(GCodeLinearMoveXValYValZVal)
G01X9.847Y4.784Z2.5(GCodeLinearMoveXValYValZVal)
G01X9.847Y18.935Z2.518(GCodeLinearMoveXValYValZVal)
G01X9.847Y19.035Z2.602(GCodeLinearMoveXValYValZVal)
G01X9.847Y19.134Z2.763(GCodeLinearMoveXValYValZVal)
G01X9.847Y19.234Z2.797(GCodeLinearMoveXValYValZVal)
G01X9.847Y23.221Z2.783(GCodeLinearMoveXValYValZVal)
G01X9.847Y23.32Z2.698(GCodeLinearMoveXValYValZVal)
G01X9.847Y23.42Z1.866F100.0(GCodeLinearMoveXValYValZValFVal)
G01X9.847Y23.52Z1.866F840.0(GCodeLinearMoveXValYValZValFVal)
G01X10.831Y23.52Z1.866(GCodeLinearMoveXValYValZVal)
G01X10.831Y23.42Z2.726F100.0(GCodeLinearMoveXValYValZValFVal)
G01X10.831Y23.32Z2.792F840.0(GCodeLinearMoveXValYValZValFVal)
G01X10.831Y19.433Z2.799(GCodeLinearMoveXValYValZVal)
G01X10.831Y19.334Z2.772(GCodeLinearMoveXValYValZVal)
G01X10.831Y19.234Z2.63(GCodeLinearMoveXValYValZVal)
G01X10.831Y19.134Z2.522(GCodeLinearMoveXValYValZVal)
G01X10.831Y19.035Z2.5(GCodeLinearMoveXValYValZVal)
G01X10.831Y4.485Z2.5(GCodeLinearMoveXValYValZVal)
G01X10.831Y4.386Z2.522(GCodeLinearMoveXValYValZVal)
G01X10.831Y4.286Z2.63(GCodeLinearMoveXValYValZVal)
G01X10.831Y4.186Z2.772(GCodeLinearMoveXValYValZVal)
G01X10.831Y4.087Z2.799(GCodeLinearMoveXValYValZVal)
G01X10.831Y0.2Z2.792(GCodeLinearMoveXValYValZVal)
G01X10.831Y0.1Z2.727(GCodeLinearMoveXValYValZVal)
G01X10.831Y0.0Z1.866F100.0(GCodeLinearMoveXValYValZValFVal)
G01X11.815Y0.0Z1.866F840.0(GCodeLinearMoveXValYValZValFVal)
G01X11.815Y0.1Z2.764F100.0(GCodeLinearMoveXValYValZValFVal)
G01X11.815Y0.2Z2.798F840.0(GCodeLinearMoveXValYValZValFVal)
G01X11.815Y4.087Z2.789(GCodeLinearMoveXValYValZVal)
G01X11.815Y4.186Z2.719(GCodeLinearMoveXValYValZVal)
G01X11.815Y4.286Z2.55(GCodeLinearMoveXValYValZVal)
G01X11.815Y4.386Z2.503(GCodeLinearMoveXValYValZVal)
G01X11.815Y19.134Z2.503(GCodeLinearMoveXValYValZVal)
G01X11.815Y19.234Z2.55(GCodeLinearMoveXValYValZVal)
G01X11.815Y19.334Z2.719(GCodeLinearMoveXValYValZVal)
G01X11.815Y19.433Z2.789(GCodeLinearMoveXValYValZVal)
G01X11.815Y23.32Z2.798(GCodeLinearMoveXValYValZVal)
G01X11.815Y23.42Z2.764(GCodeLinearMoveXValYValZVal)
G01X11.815Y23.52Z1.866F100.0(GCodeLinearMoveXValYValZValFVal)
G01X12.8Y23.52Z1.866F840.0(GCodeLinearMoveXValYValZValFVal)
G01X12.8Y23.42Z1.866(GCodeLinearMoveXValYValZVal)
G01X12.8Y23.32Z2.761F100.0(GCodeLinearMoveXValYValZValFVal)
G01X12.8Y23.221Z2.797F840.0(GCodeLinearMoveXValYValZValFVal)
G01X12.8Y19.035Z2.797(GCodeLinearMoveXValYValZVal)
G01X12.8Y18.935Z2.779(GCodeLinearMoveXValYValZVal)
G01X12.8Y18.835Z2.729(GCodeLinearMoveXValYValZVal)
G01X12.8Y18.736Z2.614(GCodeLinearMoveXValYValZVal)
G01X12.8Y18.636Z2.547(GCodeLinearMoveXValYValZVal)
G01X12.8Y18.437Z2.504(GCodeLinearMoveXValYValZVal)
G01X12.8Y5.083Z2.504(GCodeLinearMoveXValYValZVal)
G01X12.8Y4.884Z2.547(GCodeLinearMoveXValYValZVal)
G01X12.8Y4.784Z2.614(GCodeLinearMoveXValYValZVal)
G01X12.8Y4.685Z2.729(GCodeLinearMoveXValYValZVal)
G01X12.8Y4.585Z2.779(GCodeLinearMoveXValYValZVal)
G01X12.8Y4.386Z2.799(GCodeLinearMoveXValYValZVal)
G01X12.8Y0.299Z2.797(GCodeLinearMoveXValYValZVal)
G01X12.8Y0.2Z2.761(GCodeLinearMoveXValYValZVal)
G01X12.8Y0.1Z1.866F100.0(GCodeLinearMoveXValYValZValFVal)
G01X12.8Y0.0Z1.866F840.0(GCodeLinearMoveXValYValZValFVal)
G01X13.784Y0.0Z1.866(GCodeLinearMoveXValYValZVal)
G01X13.784Y0.399Z1.866(GCodeLinearMoveXValYValZVal)
G01X13.784Y0.499Z2.761F100.0(GCodeLinearMoveXValYValZValFVal)
G01X13.784Y0.598Z2.797F840.0(GCodeLinearMoveXValYValZValFVal)
G01X13.784Y7.973Z2.796(GCodeLinearMoveXValYValZVal)
G01X13.784Y8.173Z2.748(GCodeLinearMoveXValYValZVal)
G01X13.784Y8.272Z2.672(GCodeLinearMoveXValYValZVal)
G01X13.784Y8.372Z2.56(GCodeLinearMoveXValYValZVal)
G01X13.784Y8.472Z2.521(GCodeLinearMoveXValYValZVal)
G01X13.784Y8.771Z2.5(GCodeLinearMoveXValYValZVal)
G01X13.784Y14.949Z2.504(GCodeLinearMoveXValYValZVal)
G01X13.784Y15.048Z2.521(GCodeLinearMoveXValYValZVal)
G01X13.784Y15.148Z2.56(GCodeLinearMoveXValYValZVal)
G01X13.784Y15.248Z2.674(GCodeLinearMoveXValYValZVal)
G01X13.784Y15.347Z2.75(GCodeLinearMoveXValYValZVal)
G01X13.784Y15.547Z2.796(GCodeLinearMoveXValYValZVal)
G01X13.784Y22.922Z2.797(GCodeLinearMoveXValYValZVal)
G01X13.784Y23.021Z2.761(GCodeLinearMoveXValYValZVal)
G01X13.784Y23.121Z1.866F100.0(GCodeLinearMoveXValYValZValFVal)
G01X13.784Y23.52Z1.866F840.0(GCodeLinearMoveXValYValZValFVal)
G01X14.769Y23.52Z1.866(GCodeLinearMoveXValYValZVal)
G01X14.769Y22.623Z1.866(GCodeLinearMoveXValYValZVal)
G01X14.769Y22.523Z2.751F100.0(GCodeLinearMoveXValYValZValFVal)
G01X14.769Y22.423Z2.793F840.0(GCodeLinearMoveXValYValZValFVal)
G01X14.769Y14.351Z2.798(GCodeLinearMoveXValYValZVal)
G01X14.769Y14.251Z2.775(GCodeLinearMoveXValYValZVal)
G01X14.769Y14.151Z2.702(GCodeLinearMoveXValYValZVal)
G01X14.769Y14.052Z2.556(GCodeLinearMoveXValYValZVal)
G01X14.769Y13.952Z2.511(GCodeLinearMoveXValYValZVal)
G01X14.769Y9.668Z2.5(GCodeLinearMoveXValYValZVal)
G01X14.769Y9.568Z2.511(GCodeLinearMoveXValYValZVal)
G01X14.769Y9.468Z2.556(GCodeLinearMoveXValYValZVal)
G01X14.769Y9.369Z2.703(GCodeLinearMoveXValYValZVal)
G01X14.769Y9.269Z2.775(GCodeLinearMoveXValYValZVal)
G01X14.769Y9.07Z2.799(GCodeLinearMoveXValYValZVal)
G01X14.769Y1.097Z2.793(GCodeLinearMoveXValYValZVal)
G01X14.769Y0.997Z2.751(GCodeLinearMoveXValYValZVal)
G01X14.769Y0.897Z1.866F100.0(GCodeLinearMoveXValYValZValFVal)
G01X14.769Y0.0Z1.866F840.0(GCodeLinearMoveXValYValZValFVal)
G01X15.754Y0.0Z1.866(GCodeLinearMoveXValYValZVal)
G01X15.754Y1.695Z1.866(GCodeLinearMoveXValYValZVal)
G01X15.754Y1.794Z2.715F100.0(GCodeLinearMoveXValYValZValFVal)
G01X15.754Y1.894Z2.775F840.0(GCodeLinearMoveXValYValZValFVal)
G01X15.754Y2.193Z2.799(GCodeLinearMoveXValYValZVal)
G01X15.754Y9.867Z2.79(GCodeLinearMoveXValYValZVal)
G01X15.754Y9.967Z2.734(GCodeLinearMoveXValYValZVal)
G01X15.754Y10.066Z2.566(GCodeLinearMoveXValYValZVal)
G01X15.754Y10.166Z2.509(GCodeLinearMoveXValYValZVal)
G01X15.754Y13.354Z2.509(GCodeLinearMoveXValYValZVal)
G01X15.754Y13.454Z2.566(GCodeLinearMoveXValYValZVal)
G01X15.754Y13.553Z2.735(GCodeLinearMoveXValYValZVal)
G01X15.754Y13.653Z2.79(GCodeLinearMoveXValYValZVal)
G01X15.754Y21.526Z2.796(GCodeLinearMoveXValYValZVal)
G01X15.754Y21.626Z2.775(GCodeLinearMoveXValYValZVal)
G01X15.754Y21.726Z2.715(GCodeLinearMoveXValYValZVal)
G01X15.754Y21.825Z1.866F100.0(GCodeLinearMoveXValYValZValFVal)
G01X15.754Y23.52Z1.866F840.0(GCodeLinearMoveXValYValZValFVal)
G01X16.738Y23.52Z1.866(GCodeLinearMoveXValYValZVal)
G01X16.738Y20.33Z1.866(GCodeLinearMoveXValYValZVal)
G01X16.738Y20.231Z2.71F100.0(GCodeLinearMoveXValYValZValFVal)
G01X16.738Y20.031Z2.78F840.0(GCodeLinearMoveXValYValZValFVal)
G01X16.738Y13.354Z2.799(GCodeLinearMoveXValYValZVal)
G01X16.738Y13.254Z2.767(GCodeLinearMoveXValYValZVal)
G01X16.738Y13.155Z2.621(GCodeLinearMoveXValYValZVal)
G01X16.738Y13.055Z2.518(GCodeLinearMoveXValYValZVal)
G01X16.738Y10.565Z2.5(GCodeLinearMoveXValYValZVal)
G01X16.738Y10.465Z2.518(GCodeLinearMoveXValYValZVal)
G01X16.738Y10.365Z2.621(GCodeLinearMoveXValYValZVal)
G01X16.738Y10.266Z2.767(GCodeLinearMoveXValYValZVal)
G01X16.738Y10.166Z2.798(GCodeLinearMoveXValYValZVal)
G01X16.738Y3.588Z2.794(GCodeLinearMoveXValYValZVal)
G01X16.738Y3.389Z2.755(GCodeLinearMoveXValYValZVal)
G01X16.738Y3.289Z2.71(GCodeLinearMoveXValYValZVal)
G01X16.738Y3.19Z1.866F100.0(GCodeLinearMoveXValYValZValFVal)
G01X16.738Y0.0Z1.866F840.0(GCodeLinearMoveXValYValZValFVal)
G01X17.723Y0.0Z1.866(GCodeLinearMoveXValYValZVal)
G01X17.723Y6.179Z1.866(GCodeLinearMoveXValYValZVal)
G01X17.723Y6.279Z2.697F100.0(GCodeLinearMoveXValYValZValFVal)
G01X17.723Y6.379Z2.783F840.0(GCodeLinearMoveXValYValZValFVal)
G01X17.723Y6.578Z2.799(GCodeLinearMoveXValYValZVal)
G01X17.723Y10.266Z2.799(GCodeLinearMoveXValYValZVal)
G01X17.723Y10.365Z2.776(GCodeLinearMoveXValYValZVal)
G01X17.723Y10.565Z2.525(GCodeLinearMoveXValYValZVal)
G01X17.723Y10.664Z2.5(GCodeLinearMoveXValYValZVal)
G01X17.723Y12.856Z2.5(GCodeLinearMoveXValYValZVal)
G01X17.723Y12.955Z2.525(GCodeLinearMoveXValYValZVal)
G01X17.723Y13.155Z2.776(GCodeLinearMoveXValYValZVal)
G01X17.723Y13.254Z2.799(GCodeLinearMoveXValYValZVal)
G01X17.723Y17.141Z2.783(GCodeLinearMoveXValYValZVal)
G01X17.723Y17.241Z2.697(GCodeLinearMoveXValYValZVal)
G01X17.723Y17.341Z1.866F100.0(GCodeLinearMoveXValYValZValFVal)
G01X17.723Y23.52Z1.866F840.0(GCodeLinearMoveXValYValZValFVal)
G01X18.708Y23.52Z1.866(GCodeLinearMoveXValYValZVal)
G01X18.708Y17.341Z1.866(GCodeLinearMoveXValYValZVal)
G01X18.708Y17.241Z2.68F100.0(GCodeLinearMoveXValYValZValFVal)
G01X18.708Y17.141Z2.78F840.0(GCodeLinearMoveXValYValZValFVal)
G01X18.708Y13.254Z2.799(GCodeLinearMoveXValYValZVal)
G01X18.708Y13.155Z2.776(GCodeLinearMoveXValYValZVal)
G01X18.708Y12.955Z2.524(GCodeLinearMoveXValYValZVal)
G01X18.708Y12.856Z2.5(GCodeLinearMoveXValYValZVal)
G01X18.708Y10.664Z2.5(GCodeLinearMoveXValYValZVal)
G01X18.708Y10.565Z2.524(GCodeLinearMoveXValYValZVal)
G01X18.708Y10.365Z2.776(GCodeLinearMoveXValYValZVal)
G01X18.708Y10.266Z2.799(GCodeLinearMoveXValYValZVal)
G01X18.708Y6.379Z2.78(GCodeLinearMoveXValYValZVal)
G01X18.708Y6.279Z2.68(GCodeLinearMoveXValYValZVal)
G01X18.708Y6.179Z1.866F100.0(GCodeLinearMoveXValYValZValFVal)
G01X18.708Y0.0Z1.866F840.0(GCodeLinearMoveXValYValZValFVal)
G01X19.692Y0.0Z1.866(GCodeLinearMoveXValYValZVal)
G01X19.692Y6.179Z1.866(GCodeLinearMoveXValYValZVal)
G01X19.692Y6.279Z2.68F100.0(GCodeLinearMoveXValYValZValFVal)
G01X19.692Y6.379Z2.78F840.0(GCodeLinearMoveXValYValZValFVal)
G01X19.692Y10.266Z2.799(GCodeLinearMoveXValYValZVal)
G01X19.692Y10.365Z2.776(GCodeLinearMoveXValYValZVal)
G01X19.692Y10.565Z2.525(GCodeLinearMoveXValYValZVal)
G01X19.692Y10.664Z2.5(GCodeLinearMoveXValYValZVal)
G01X19.692Y12.856Z2.5(GCodeLinearMoveXValYValZVal)
G01X19.692Y12.955Z2.525(GCodeLinearMoveXValYValZVal)
G01X19.692Y13.155Z2.776(GCodeLinearMoveXValYValZVal)
G01X19.692Y13.254Z2.799(GCodeLinearMoveXValYValZVal)
G01X19.692Y17.141Z2.78(GCodeLinearMoveXValYValZVal)
G01X19.692Y17.241Z2.68(GCodeLinearMoveXValYValZVal)
G01X19.692Y17.341Z1.866F100.0(GCodeLinearMoveXValYValZValFVal)
G01X19.692Y23.52Z1.866F840.0(GCodeLinearMoveXValYValZValFVal)
G01X20.677Y23.52Z1.866(GCodeLinearMoveXValYValZVal)
G01X20.677Y17.341Z1.866(GCodeLinearMoveXValYValZVal)
G01X20.677Y17.241Z2.68F100.0(GCodeLinearMoveXValYValZValFVal)
G01X20.677Y17.141Z2.78F840.0(GCodeLinearMoveXValYValZValFVal)
G01X20.677Y13.254Z2.799(GCodeLinearMoveXValYValZVal)
G01X20.677Y13.155Z2.776(GCodeLinearMoveXValYValZVal)
G01X20.677Y12.955Z2.525(GCodeLinearMoveXValYValZVal)
G01X20.677Y12.856Z2.5(GCodeLinearMoveXValYValZVal)
G01X20.677Y10.664Z2.5(GCodeLinearMoveXValYValZVal)
G01X20.677Y10.565Z2.525(GCodeLinearMoveXValYValZVal)
G01X20.677Y10.365Z2.776(GCodeLinearMoveXValYValZVal)
G01X20.677Y10.266Z2.799(GCodeLinearMoveXValYValZVal)
G01X20.677Y6.379Z2.78(GCodeLinearMoveXValYValZVal)
G01X20.677Y6.279Z2.68(GCodeLinearMoveXValYValZVal)
G01X20.677Y6.179Z1.866F100.0(GCodeLinearMoveXValYValZValFVal)
G01X20.677Y0.0Z1.866F840.0(GCodeLinearMoveXValYValZValFVal)
G01X21.662Y0.0Z1.866(GCodeLinearMoveXValYValZVal)
G01X21.662Y6.179Z1.866(GCodeLinearMoveXValYValZVal)
G01X21.662Y6.279Z2.68F100.0(GCodeLinearMoveXValYValZValFVal)
G01X21.662Y6.379Z2.78F840.0(GCodeLinearMoveXValYValZValFVal)
G01X21.662Y10.266Z2.799(GCodeLinearMoveXValYValZVal)
G01X21.662Y10.365Z2.776(GCodeLinearMoveXValYValZVal)
G01X21.662Y10.565Z2.525(GCodeLinearMoveXValYValZVal)
G01X21.662Y10.664Z2.5(GCodeLinearMoveXValYValZVal)
G01X21.662Y12.856Z2.5(GCodeLinearMoveXValYValZVal)
G01X21.662Y12.955Z2.525(GCodeLinearMoveXValYValZVal)
G01X21.662Y13.155Z2.776(GCodeLinearMoveXValYValZVal)
G01X21.662Y13.254Z2.799(GCodeLinearMoveXValYValZVal)
G01X21.662Y17.141Z2.78(GCodeLinearMoveXValYValZVal)
G01X21.662Y17.241Z2.68(GCodeLinearMoveXValYValZVal)
G01X21.662Y17.341Z1.866F100.0(GCodeLinearMoveXValYValZValFVal)
G01X21.662Y23.52Z1.866F840.0(GCodeLinearMoveXValYValZValFVal)
G01X22.646Y23.52Z1.866(GCodeLinearMoveXValYValZVal)
G01X22.646Y17.341Z1.866(GCodeLinearMoveXValYValZVal)
G01X22.646Y17.241Z2.68F100.0(GCodeLinearMoveXValYValZValFVal)
G01X22.646Y17.141Z2.78F840.0(GCodeLinearMoveXValYValZValFVal)
G01X22.646Y13.254Z2.799(GCodeLinearMoveXValYValZVal)
G01X22.646Y13.155Z2.776(GCodeLinearMoveXValYValZVal)
G01X22.646Y12.955Z2.525(GCodeLinearMoveXValYValZVal)
G01X22.646Y12.856Z2.5(GCodeLinearMoveXValYValZVal)
G01X22.646Y10.664Z2.5(GCodeLinearMoveXValYValZVal)
G01X22.646Y10.565Z2.525(GCodeLinearMoveXValYValZVal)
G01X22.646Y10.365Z2.776(GCodeLinearMoveXValYValZVal)
G01X22.646Y10.266Z2.799(GCodeLinearMoveXValYValZVal)
G01X22.646Y6.379Z2.78(GCodeLinearMoveXValYValZVal)
G01X22.646Y6.279Z2.68(GCodeLinearMoveXValYValZVal)
G01X22.646Y6.179Z1.866F100.0(GCodeLinearMoveXValYValZValFVal)
G01X22.646Y0.0Z1.866F840.0(GCodeLinearMoveXValYValZValFVal)
G01X23.631Y0.0Z1.866(GCodeLinearMoveXValYValZVal)
G01X23.631Y6.179Z1.866(GCodeLinearMoveXValYValZVal)
G01X23.631Y6.279Z2.68F100.0(GCodeLinearMoveXValYValZValFVal)
G01X23.631Y6.379Z2.78F840.0(GCodeLinearMoveXValYValZValFVal)
G01X23.631Y10.266Z2.799(GCodeLinearMoveXValYValZVal)
G01X23.631Y10.365Z2.776(GCodeLinearMoveXValYValZVal)
G01X23.631Y10.565Z2.525(GCodeLinearMoveXValYValZVal)
G01X23.631Y10.664Z2.5(GCodeLinearMoveXValYValZVal)
G01X23.631Y12.856Z2.5(GCodeLinearMoveXValYValZVal)
G01X23.631Y12.955Z2.525(GCodeLinearMoveXValYValZVal)
G01X23.631Y13.155Z2.776(GCodeLinearMoveXValYValZVal)
G01X23.631Y13.254Z2.799(GCodeLinearMoveXValYValZVal)
G01X23.631Y17.141Z2.78(GCodeLinearMoveXValYValZVal)
G01X23.631Y17.241Z2.68(GCodeLinearMoveXValYValZVal)
G01X23.631Y17.341Z1.866F100.0(GCodeLinearMoveXValYValZValFVal)
G01X23.631Y23.52Z1.866F840.0(GCodeLinearMoveXValYValZValFVal)
G01X24.616Y23.52Z1.866(GCodeLinearMoveXValYValZVal)
G01X24.616Y17.341Z1.866(GCodeLinearMoveXValYValZVal)
G01X24.616Y17.241Z2.68F100.0(GCodeLinearMoveXValYValZValFVal)
G01X24.616Y17.141Z2.78F840.0(GCodeLinearMoveXValYValZValFVal)
G01X24.616Y13.254Z2.799(GCodeLinearMoveXValYValZVal)
G01X24.616Y13.155Z2.776(GCodeLinearMoveXValYValZVal)
G01X24.616Y12.955Z2.525(GCodeLinearMoveXValYValZVal)
G01X24.616Y12.856Z2.5(GCodeLinearMoveXValYValZVal)
G01X24.616Y10.664Z2.5(GCodeLinearMoveXValYValZVal)
G01X24.616Y10.565Z2.525(GCodeLinearMoveXValYValZVal)
G01X24.616Y10.365Z2.776(GCodeLinearMoveXValYValZVal)
G01X24.616Y10.266Z2.799(GCodeLinearMoveXValYValZVal)
G01X24.616Y6.379Z2.78(GCodeLinearMoveXValYValZVal)
G01X24.616Y6.279Z2.68(GCodeLinearMoveXValYValZVal)
G01X24.616Y6.179Z1.866F100.0(GCodeLinearMoveXValYValZValFVal)
G01X24.616Y0.0Z1.866F840.0(GCodeLinearMoveXValYValZValFVal)
G01X25.6Y0.0Z1.866(GCodeLinearMoveXValYValZVal)
G01X25.6Y6.179Z1.866(GCodeLinearMoveXValYValZVal)
G01X25.6Y6.279Z2.68F100.0(GCodeLinearMoveXValYValZValFVal)
G01X25.6Y6.379Z2.78F840.0(GCodeLinearMoveXValYValZValFVal)
G01X25.6Y10.266Z2.799(GCodeLinearMoveXValYValZVal)
G01X25.6Y10.365Z2.776(GCodeLinearMoveXValYValZVal)
G01X25.6Y10.565Z2.525(GCodeLinearMoveXValYValZVal)
G01X25.6Y10.664Z2.5(GCodeLinearMoveXValYValZVal)
G01X25.6Y12.856Z2.5(GCodeLinearMoveXValYValZVal)
G01X25.6Y12.955Z2.525(GCodeLinearMoveXValYValZVal)
G01X25.6Y13.155Z2.776(GCodeLinearMoveXValYValZVal)
G01X25.6Y13.254Z2.799(GCodeLinearMoveXValYValZVal)
G01X25.6Y17.141Z2.78(GCodeLinearMoveXValYValZVal)
G01X25.6Y17.241Z2.68(GCodeLinearMoveXValYValZVal)
G01X25.6Y17.341Z1.866F100.0(GCodeLinearMoveXValYValZValFVal)
G01X25.6Y23.52Z1.866F840.0(GCodeLinearMoveXValYValZValFVal)
G01X26.585Y23.52Z1.866(GCodeLinearMoveXValYValZVal)
G01X26.585Y17.341Z1.866(GCodeLinearMoveXValYValZVal)
G01X26.585Y17.241Z2.68F100.0(GCodeLinearMoveXValYValZValFVal)
G01X26.585Y17.141Z2.78F840.0(GCodeLinearMoveXValYValZValFVal)
G01X26.585Y13.254Z2.799(GCodeLinearMoveXValYValZVal)
G01X26.585Y13.155Z2.776(GCodeLinearMoveXValYValZVal)
G01X26.585Y12.955Z2.525(GCodeLinearMoveXValYValZVal)
G01X26.585Y12.856Z2.5(GCodeLinearMoveXValYValZVal)
G01X26.585Y10.664Z2.5(GCodeLinearMoveXValYValZVal)
G01X26.585Y10.565Z2.525(GCodeLinearMoveXValYValZVal)
G01X26.585Y10.365Z2.776(GCodeLinearMoveXValYValZVal)
G01X26.585Y10.266Z2.799(GCodeLinearMoveXValYValZVal)
G01X26.585Y6.379Z2.78(GCodeLinearMoveXValYValZVal)
G01X26.585Y6.279Z2.68(GCodeLinearMoveXValYValZVal)
G01X26.585Y6.179Z1.866F100.0(GCodeLinearMoveXValYValZValFVal)
G01X26.585Y0.0Z1.866F840.0(GCodeLinearMoveXValYValZValFVal)
G01X27.57Y0.0Z1.866(GCodeLinearMoveXValYValZVal)
G01X27.57Y6.179Z1.866(GCodeLinearMoveXValYValZVal)
G01X27.57Y6.279Z2.68F100.0(GCodeLinearMoveXValYValZValFVal)
G01X27.57Y6.379Z2.78F840.0(GCodeLinearMoveXValYValZValFVal)
G01X27.57Y10.266Z2.799(GCodeLinearMoveXValYValZVal)
G01X27.57Y10.365Z2.776(GCodeLinearMoveXValYValZVal)
G01X27.57Y10.565Z2.525(GCodeLinearMoveXValYValZVal)
G01X27.57Y10.664Z2.5(GCodeLinearMoveXValYValZVal)
G01X27.57Y12.856Z2.5(GCodeLinearMoveXValYValZVal)
G01X27.57Y12.955Z2.525(GCodeLinearMoveXValYValZVal)
G01X27.57Y13.155Z2.776(GCodeLinearMoveXValYValZVal)
G01X27.57Y13.254Z2.799(GCodeLinearMoveXValYValZVal)
G01X27.57Y17.141Z2.78(GCodeLinearMoveXValYValZVal)
G01X27.57Y17.241Z2.68(GCodeLinearMoveXValYValZVal)
G01X27.57Y17.341Z1.866F100.0(GCodeLinearMoveXValYValZValFVal)
G01X27.57Y23.52Z1.866F840.0(GCodeLinearMoveXValYValZValFVal)
G01X28.554Y23.52Z1.866(GCodeLinearMoveXValYValZVal)
G01X28.554Y17.341Z1.866(GCodeLinearMoveXValYValZVal)
G01X28.554Y17.241Z2.68F100.0(GCodeLinearMoveXValYValZValFVal)
G01X28.554Y17.141Z2.78F840.0(GCodeLinearMoveXValYValZValFVal)
G01X28.554Y13.254Z2.799(GCodeLinearMoveXValYValZVal)
G01X28.554Y13.155Z2.776(GCodeLinearMoveXValYValZVal)
G01X28.554Y12.955Z2.525(GCodeLinearMoveXValYValZVal)
G01X28.554Y12.856Z2.5(GCodeLinearMoveXValYValZVal)
G01X28.554Y10.664Z2.5(GCodeLinearMoveXValYValZVal)
G01X28.554Y10.565Z2.525(GCodeLinearMoveXValYValZVal)
G01X28.554Y10.365Z2.776(GCodeLinearMoveXValYValZVal)
G01X28.554Y10.266Z2.799(GCodeLinearMoveXValYValZVal)
G01X28.554Y6.379Z2.78(GCodeLinearMoveXValYValZVal)
G01X28.554Y6.279Z2.68(GCodeLinearMoveXValYValZVal)
G01X28.554Y6.179Z1.866F100.0(GCodeLinearMoveXValYValZValFVal)
G01X28.554Y0.0Z1.866F840.0(GCodeLinearMoveXValYValZValFVal)
G01X29.539Y0.0Z1.866(GCodeLinearMoveXValYValZVal)
G01X29.539Y6.179Z1.866(GCodeLinearMoveXValYValZVal)
G01X29.539Y6.279Z2.68F100.0(GCodeLinearMoveXValYValZValFVal)
G01X29.539Y6.379Z2.78F840.0(GCodeLinearMoveXValYValZValFVal)
G01X29.539Y10.266Z2.799(GCodeLinearMoveXValYValZVal)
G01X29.539Y10.365Z2.776(GCodeLinearMoveXValYValZVal)
G01X29.539Y10.565Z2.525(GCodeLinearMoveXValYValZVal)
G01X29.539Y10.664Z2.5(GCodeLinearMoveXValYValZVal)
G01X29.539Y12.856Z2.5(GCodeLinearMoveXValYValZVal)
G01X29.539Y12.955Z2.525(GCodeLinearMoveXValYValZVal)
G01X29.539Y13.155Z2.776(GCodeLinearMoveXValYValZVal)
G01X29.539Y13.254Z2.799(GCodeLinearMoveXValYValZVal)
G01X29.539Y17.141Z2.78(GCodeLinearMoveXValYValZVal)
G01X29.539Y17.241Z2.68(GCodeLinearMoveXValYValZVal)
G01X29.539Y17.341Z1.866F100.0(GCodeLinearMoveXValYValZValFVal)
G01X29.539Y23.52Z1.866F840.0(GCodeLinearMoveXValYValZValFVal)
G01X30.523Y23.52Z1.866(GCodeLinearMoveXValYValZVal)
G01X30.523Y17.341Z1.866(GCodeLinearMoveXValYValZVal)
G01X30.523Y17.241Z2.68F100.0(GCodeLinearMoveXValYValZValFVal)
G01X30.523Y17.141Z2.78F840.0(GCodeLinearMoveXValYValZValFVal)
G01X30.523Y13.254Z2.799(GCodeLinearMoveXValYValZVal)
G01X30.523Y13.155Z2.776(GCodeLinearMoveXValYValZVal)
G01X30.523Y12.955Z2.525(GCodeLinearMoveXValYValZVal)
G01X30.523Y12.856Z2.5(GCodeLinearMoveXValYValZVal)
G01X30.523Y10.664Z2.5(GCodeLinearMoveXValYValZVal)
G01X30.523Y10.565Z2.525(GCodeLinearMoveXValYValZVal)
G01X30.523Y10.365Z2.776(GCodeLinearMoveXValYValZVal)
G01X30.523Y10.266Z2.799(GCodeLinearMoveXValYValZVal)
G01X30.523Y6.379Z2.78(GCodeLinearMoveXValYValZVal)
G01X30.523Y6.279Z2.68(GCodeLinearMoveXValYValZVal)
G01X30.523Y6.179Z1.866F100.0(GCodeLinearMoveXValYValZValFVal)
G01X30.523Y0.0Z1.866F840.0(GCodeLinearMoveXValYValZValFVal)
G01X31.508Y0.0Z1.866(GCodeLinearMoveXValYValZVal)
G01X31.508Y6.179Z1.866(GCodeLinearMoveXValYValZVal)
G01X31.508Y6.279Z2.68F100.0(GCodeLinearMoveXValYValZValFVal)
G01X31.508Y6.379Z2.78F840.0(GCodeLinearMoveXValYValZValFVal)
G01X31.508Y10.266Z2.799(GCodeLinearMoveXValYValZVal)
G01X31.508Y10.365Z2.776(GCodeLinearMoveXValYValZVal)
G01X31.508Y10.565Z2.525(GCodeLinearMoveXValYValZVal)
G01X31.508Y10.664Z2.5(GCodeLinearMoveXValYValZVal)
G01X31.508Y12.856Z2.5(GCodeLinearMoveXValYValZVal)
G01X31.508Y12.955Z2.525(GCodeLinearMoveXValYValZVal)
G01X31.508Y13.155Z2.776(GCodeLinearMoveXValYValZVal)
G01X31.508Y13.254Z2.799(GCodeLinearMoveXValYValZVal)
G01X31.508Y17.141Z2.78(GCodeLinearMoveXValYValZVal)
G01X31.508Y17.241Z2.68(GCodeLinearMoveXValYValZVal)
G01X31.508Y17.341Z1.866F100.0(GCodeLinearMoveXValYValZValFVal)
G01X31.508Y23.52Z1.866F840.0(GCodeLinearMoveXValYValZValFVal)
G01X32.493Y23.52Z1.866(GCodeLinearMoveXValYValZVal)
G01X32.493Y17.341Z1.866(GCodeLinearMoveXValYValZVal)
G01X32.493Y17.241Z2.68F100.0(GCodeLinearMoveXValYValZValFVal)
G01X32.493Y17.141Z2.78F840.0(GCodeLinearMoveXValYValZValFVal)
G01X32.493Y13.254Z2.799(GCodeLinearMoveXValYValZVal)
G01X32.493Y13.155Z2.776(GCodeLinearMoveXValYValZVal)
G01X32.493Y12.955Z2.525(GCodeLinearMoveXValYValZVal)
G01X32.493Y12.856Z2.5(GCodeLinearMoveXValYValZVal)
G01X32.493Y10.664Z2.5(GCodeLinearMoveXValYValZVal)
G01X32.493Y10.565Z2.525(GCodeLinearMoveXValYValZVal)
G01X32.493Y10.365Z2.776(GCodeLinearMoveXValYValZVal)
G01X32.493Y10.266Z2.799(GCodeLinearMoveXValYValZVal)
G01X32.493Y6.379Z2.78(GCodeLinearMoveXValYValZVal)
G01X32.493Y6.279Z2.68(GCodeLinearMoveXValYValZVal)
G01X32.493Y6.179Z1.866F100.0(GCodeLinearMoveXValYValZValFVal)
G01X32.493Y0.0Z1.866F840.0(GCodeLinearMoveXValYValZValFVal)
G01X33.477Y0.0Z1.866(GCodeLinearMoveXValYValZVal)
G01X33.477Y6.179Z1.866(GCodeLinearMoveXValYValZVal)
G01X33.477Y6.279Z2.68F100.0(GCodeLinearMoveXValYValZValFVal)
G01X33.477Y6.379Z2.78F840.0(GCodeLinearMoveXValYValZValFVal)
G01X33.477Y10.266Z2.799(GCodeLinearMoveXValYValZVal)
G01X33.477Y10.365Z2.776(GCodeLinearMoveXValYValZVal)
G01X33.477Y10.565Z2.525(GCodeLinearMoveXValYValZVal)
G01X33.477Y10.664Z2.5(GCodeLinearMoveXValYValZVal)
G01X33.477Y12.856Z2.5(GCodeLinearMoveXValYValZVal)
G01X33.477Y12.955Z2.525(GCodeLinearMoveXValYValZVal)
G01X33.477Y13.155Z2.776(GCodeLinearMoveXValYValZVal)
G01X33.477Y13.254Z2.799(GCodeLinearMoveXValYValZVal)
G01X33.477Y17.141Z2.78(GCodeLinearMoveXValYValZVal)
G01X33.477Y17.241Z2.68(GCodeLinearMoveXValYValZVal)
G01X33.477Y17.341Z1.866F100.0(GCodeLinearMoveXValYValZValFVal)
G01X33.477Y23.52Z1.866F840.0(GCodeLinearMoveXValYValZValFVal)
G01X34.462Y23.52Z1.866(GCodeLinearMoveXValYValZVal)
G01X34.462Y17.341Z1.866(GCodeLinearMoveXValYValZVal)
G01X34.462Y17.241Z2.68F100.0(GCodeLinearMoveXValYValZValFVal)
G01X34.462Y17.141Z2.78F840.0(GCodeLinearMoveXValYValZValFVal)
G01X34.462Y13.254Z2.799(GCodeLinearMoveXValYValZVal)
G01X34.462Y13.155Z2.776(GCodeLinearMoveXValYValZVal)
G01X34.462Y12.955Z2.525(GCodeLinearMoveXValYValZVal)
G01X34.462Y12.856Z2.5(GCodeLinearMoveXValYValZVal)
G01X34.462Y10.664Z2.5(GCodeLinearMoveXValYValZVal)
G01X34.462Y10.565Z2.525(GCodeLinearMoveXValYValZVal)
G01X34.462Y10.365Z2.776(GCodeLinearMoveXValYValZVal)
G01X34.462Y10.266Z2.799(GCodeLinearMoveXValYValZVal)
G01X34.462Y6.379Z2.78(GCodeLinearMoveXValYValZVal)
G01X34.462Y6.279Z2.68(GCodeLinearMoveXValYValZVal)
G01X34.462Y6.179Z1.866F100.0(GCodeLinearMoveXValYValZValFVal)
G01X34.462Y0.0Z1.866F840.0(GCodeLinearMoveXValYValZValFVal)
G01X35.447Y0.0Z1.866(GCodeLinearMoveXValYValZVal)
G01X35.447Y6.179Z1.866(GCodeLinearMoveXValYValZVal)
G01X35.447Y6.279Z2.68F100.0(GCodeLinearMoveXValYValZValFVal)
G01X35.447Y6.379Z2.78F840.0(GCodeLinearMoveXValYValZValFVal)
G01X35.447Y10.266Z2.799(GCodeLinearMoveXValYValZVal)
G01X35.447Y10.365Z2.776(GCodeLinearMoveXValYValZVal)
G01X35.447Y10.565Z2.525(GCodeLinearMoveXValYValZVal)
G01X35.447Y10.664Z2.5(GCodeLinearMoveXValYValZVal)
G01X35.447Y12.856Z2.5(GCodeLinearMoveXValYValZVal)
G01X35.447Y12.955Z2.525(GCodeLinearMoveXValYValZVal)
G01X35.447Y13.155Z2.776(GCodeLinearMoveXValYValZVal)
G01X35.447Y13.254Z2.799(GCodeLinearMoveXValYValZVal)
G01X35.447Y17.141Z2.78(GCodeLinearMoveXValYValZVal)
G01X35.447Y17.241Z2.68(GCodeLinearMoveXValYValZVal)
G01X35.447Y17.341Z1.866F100.0(GCodeLinearMoveXValYValZValFVal)
G01X35.447Y23.52Z1.866F840.0(GCodeLinearMoveXValYValZValFVal)
G01X36.431Y23.52Z1.866(GCodeLinearMoveXValYValZVal)
G01X36.431Y17.341Z1.866(GCodeLinearMoveXValYValZVal)
G01X36.431Y17.241Z2.68F100.0(GCodeLinearMoveXValYValZValFVal)
G01X36.431Y17.141Z2.78F840.0(GCodeLinearMoveXValYValZValFVal)
G01X36.431Y13.254Z2.799(GCodeLinearMoveXValYValZVal)
G01X36.431Y13.155Z2.776(GCodeLinearMoveXValYValZVal)
G01X36.431Y12.955Z2.525(GCodeLinearMoveXValYValZVal)
G01X36.431Y12.856Z2.5(GCodeLinearMoveXValYValZVal)
G01X36.431Y10.664Z2.5(GCodeLinearMoveXValYValZVal)
G01X36.431Y10.565Z2.525(GCodeLinearMoveXValYValZVal)
G01X36.431Y10.365Z2.776(GCodeLinearMoveXValYValZVal)
G01X36.431Y10.266Z2.799(GCodeLinearMoveXValYValZVal)
G01X36.431Y6.379Z2.78(GCodeLinearMoveXValYValZVal)
G01X36.431Y6.279Z2.68(GCodeLinearMoveXValYValZVal)
G01X36.431Y6.179Z1.866F100.0(GCodeLinearMoveXValYValZValFVal)
G01X36.431Y0.0Z1.866F840.0(GCodeLinearMoveXValYValZValFVal)
G01X37.416Y0.0Z1.866(GCodeLinearMoveXValYValZVal)
G01X37.416Y6.179Z1.866(GCodeLinearMoveXValYValZVal)
G01X37.416Y6.279Z2.68F100.0(GCodeLinearMoveXValYValZValFVal)
G01X37.416Y6.379Z2.78F840.0(GCodeLinearMoveXValYValZValFVal)
G01X37.416Y10.266Z2.799(GCodeLinearMoveXValYValZVal)
G01X37.416Y10.365Z2.776(GCodeLinearMoveXValYValZVal)
G01X37.416Y10.565Z2.525(GCodeLinearMoveXValYValZVal)
G01X37.416Y10.664Z2.5(GCodeLinearMoveXValYValZVal)
G01X37.416Y12.856Z2.5(GCodeLinearMoveXValYValZVal)
G01X37.416Y12.955Z2.525(GCodeLinearMoveXValYValZVal)
G01X37.416Y13.155Z2.776(GCodeLinearMoveXValYValZVal)
G01X37.416Y13.254Z2.799(GCodeLinearMoveXValYValZVal)
G01X37.416Y17.141Z2.78(GCodeLinearMoveXValYValZVal)
G01X37.416Y17.241Z2.68(GCodeLinearMoveXValYValZVal)
G01X37.416Y17.341Z1.866F100.0(GCodeLinearMoveXValYValZValFVal)
G01X37.416Y23.52Z1.866F840.0(GCodeLinearMoveXValYValZValFVal)
G01X38.401Y23.52Z1.866(GCodeLinearMoveXValYValZVal)
G01X38.401Y17.341Z1.866(GCodeLinearMoveXValYValZVal)
G01X38.401Y17.241Z2.68F100.0(GCodeLinearMoveXValYValZValFVal)
G01X38.401Y17.141Z2.78F840.0(GCodeLinearMoveXValYValZValFVal)
G01X38.401Y13.254Z2.799(GCodeLinearMoveXValYValZVal)
G01X38.401Y13.155Z2.776(GCodeLinearMoveXValYValZVal)
G01X38.401Y12.955Z2.525(GCodeLinearMoveXValYValZVal)
G01X38.401Y12.856Z2.5(GCodeLinearMoveXValYValZVal)
G01X38.401Y10.664Z2.5(GCodeLinearMoveXValYValZVal)
G01X38.401Y10.565Z2.525(GCodeLinearMoveXValYValZVal)
G01X38.401Y10.365Z2.776(GCodeLinearMoveXValYValZVal)
G01X38.401Y10.266Z2.799(GCodeLinearMoveXValYValZVal)
G01X38.401Y6.379Z2.78(GCodeLinearMoveXValYValZVal)
G01X38.401Y6.279Z2.68(GCodeLinearMoveXValYValZVal)
G01X38.401Y6.179Z1.866F100.0(GCodeLinearMoveXValYValZValFVal)
G01X38.401Y0.0Z1.866F840.0(GCodeLinearMoveXValYValZValFVal)
G01X39.385Y0.0Z1.866(GCodeLinearMoveXValYValZVal)
G01X39.385Y6.179Z1.866(GCodeLinearMoveXValYValZVal)
G01X39.385Y6.279Z2.68F100.0(GCodeLinearMoveXValYValZValFVal)
G01X39.385Y6.379Z2.78F840.0(GCodeLinearMoveXValYValZValFVal)
G01X39.385Y10.266Z2.799(GCodeLinearMoveXValYValZVal)
G01X39.385Y10.365Z2.776(GCodeLinearMoveXValYValZVal)
G01X39.385Y10.565Z2.525(GCodeLinearMoveXValYValZVal)
G01X39.385Y10.664Z2.5(GCodeLinearMoveXValYValZVal)
G01X39.385Y12.856Z2.5(GCodeLinearMoveXValYValZVal)
G01X39.385Y12.955Z2.525(GCodeLinearMoveXValYValZVal)
G01X39.385Y13.155Z2.776(GCodeLinearMoveXValYValZVal)
G01X39.385Y13.254Z2.799(GCodeLinearMoveXValYValZVal)
G01X39.385Y17.141Z2.78(GCodeLinearMoveXValYValZVal)
G01X39.385Y17.241Z2.68(GCodeLinearMoveXValYValZVal)
G01X39.385Y17.341Z1.866F100.0(GCodeLinearMoveXValYValZValFVal)
G01X39.385Y23.52Z1.866F840.0(GCodeLinearMoveXValYValZValFVal)
G01X40.37Y23.52Z1.866(GCodeLinearMoveXValYValZVal)
G01X40.37Y17.341Z1.866(GCodeLinearMoveXValYValZVal)
G01X40.37Y17.241Z2.68F100.0(GCodeLinearMoveXValYValZValFVal)
G01X40.37Y17.141Z2.78F840.0(GCodeLinearMoveXValYValZValFVal)
G01X40.37Y13.254Z2.799(GCodeLinearMoveXValYValZVal)
G01X40.37Y13.155Z2.776(GCodeLinearMoveXValYValZVal)
G01X40.37Y12.955Z2.525(GCodeLinearMoveXValYValZVal)
G01X40.37Y12.856Z2.5(GCodeLinearMoveXValYValZVal)
G01X40.37Y10.664Z2.5(GCodeLinearMoveXValYValZVal)
G01X40.37Y10.565Z2.525(GCodeLinearMoveXValYValZVal)
G01X40.37Y10.365Z2.776(GCodeLinearMoveXValYValZVal)
G01X40.37Y10.266Z2.799(GCodeLinearMoveXValYValZVal)
G01X40.37Y6.379Z2.78(GCodeLinearMoveXValYValZVal)
G01X40.37Y6.279Z2.68(GCodeLinearMoveXValYValZVal)
G01X40.37Y6.179Z1.866F100.0(GCodeLinearMoveXValYValZValFVal)
G01X40.37Y0.0Z1.866F840.0(GCodeLinearMoveXValYValZValFVal)
G01X41.355Y0.0Z1.866(GCodeLinearMoveXValYValZVal)
G01X41.355Y6.179Z1.866(GCodeLinearMoveXValYValZVal)
G01X41.355Y6.279Z2.68F100.0(GCodeLinearMoveXValYValZValFVal)
G01X41.355Y6.379Z2.78F840.0(GCodeLinearMoveXValYValZValFVal)
G01X41.355Y10.266Z2.799(GCodeLinearMoveXValYValZVal)
G01X41.355Y10.365Z2.777(GCodeLinearMoveXValYValZVal)
G01X41.355Y10.565Z2.525(GCodeLinearMoveXValYValZVal)
G01X41.355Y10.664Z2.5(GCodeLinearMoveXValYValZVal)
G01X41.355Y11.262Z2.491(GCodeLinearMoveXValYValZVal)
G01X41.355Y11.362Z2.448(GCodeLinearMoveXValYValZVal)
G01X41.355Y11.462Z2.318(GCodeLinearMoveXValYValZVal)
G01X41.355Y11.561Z1.866F100.0(GCodeLinearMoveXValYValZValFVal)
G01X41.355Y11.959Z1.866F840.0(GCodeLinearMoveXValYValZValFVal)
G01X41.355Y12.058Z2.318F100.0(GCodeLinearMoveXValYValZValFVal)
G01X41.355Y12.158Z2.448F840.0(GCodeLinearMoveXValYValZValFVal)
G01X41.355Y12.258Z2.491(GCodeLinearMoveXValYValZVal)
G01X41.355Y12.955Z2.525(GCodeLinearMoveXValYValZVal)
G01X41.355Y13.155Z2.777(GCodeLinearMoveXValYValZVal)
G01X41.355Y13.254Z2.799(GCodeLinearMoveXValYValZVal)
G01X41.355Y17.141Z2.78(GCodeLinearMoveXValYValZVal)
G01X41.355Y17.241Z2.68(GCodeLinearMoveXValYValZVal)
G01X41.355Y17.341Z1.866F100.0(GCodeLinearMoveXValYValZValFVal)
G01X41.355Y23.52Z1.866F840.0(GCodeLinearMoveXValYValZValFVal)
G01X42.339Y23.52Z1.866(GCodeLinearMoveXValYValZVal)
G01X42.339Y17.241Z1.866(GCodeLinearMoveXValYValZVal)
G01X42.339Y17.141Z2.761F100.0(GCodeLinearMoveXValYValZValFVal)
G01X42.339Y17.042Z2.798F840.0(GCodeLinearMoveXValYValZValFVal)
G01X42.339Y13.055Z2.788(GCodeLinearMoveXValYValZVal)
G01X42.339Y12.955Z2.727(GCodeLinearMoveXValYValZVal)
G01X42.339Y12.856Z2.568(GCodeLinearMoveXValYValZVal)
G01X42.339Y12.756Z2.511(GCodeLinearMoveXValYValZVal)
G01X42.339Y11.859Z2.473(GCodeLinearMoveXValYValZVal)
G01X42.339Y11.661Z2.473(GCodeLinearMoveXValYValZVal)
G01X42.339Y11.262Z2.5(GCodeLinearMoveXValYValZVal)
G01X42.339Y10.764Z2.511(GCodeLinearMoveXValYValZVal)
G01X42.339Y10.664Z2.568(GCodeLinearMoveXValYValZVal)
G01X42.339Y10.565Z2.727(GCodeLinearMoveXValYValZVal)
G01X42.339Y10.465Z2.788(GCodeLinearMoveXValYValZVal)
G01X42.339Y6.478Z2.798(GCodeLinearMoveXValYValZVal)
G01X42.339Y6.379Z2.761(GCodeLinearMoveXValYValZVal)
G01X42.339Y6.279Z1.866F100.0(GCodeLinearMoveXValYValZValFVal)
G01X42.339Y0.0Z1.866F840.0(GCodeLinearMoveXValYValZValFVal)
G01X43.324Y0.0Z1.866(GCodeLinearMoveXValYValZVal)
G01X43.324Y6.478Z1.866(GCodeLinearMoveXValYValZVal)
G01X43.324Y6.578Z2.756F100.0(GCodeLinearMoveXValYValZValFVal)
G01X43.324Y6.678Z2.796F840.0(GCodeLinearMoveXValYValZValFVal)
G01X43.324Y16.842Z2.796(GCodeLinearMoveXValYValZVal)
G01X43.324Y16.942Z2.756(GCodeLinearMoveXValYValZVal)
G01X43.324Y17.042Z1.866F100.0(GCodeLinearMoveXValYValZValFVal)
G01X43.324Y23.52Z1.866F840.0(GCodeLinearMoveXValYValZValFVal)
G01X44.309Y23.52Z1.866(GCodeLinearMoveXValYValZVal)
G01X44.309Y16.643Z1.866(GCodeLinearMoveXValYValZVal)
G01X44.309Y16.543Z2.751F100.0(GCodeLinearMoveXValYValZValFVal)
G01X44.309Y16.444Z2.794F840.0(GCodeLinearMoveXValYValZValFVal)
G01X44.309Y7.076Z2.794(GCodeLinearMoveXValYValZVal)
G01X44.309Y6.977Z2.751(GCodeLinearMoveXValYValZVal)
G01X44.309Y6.877Z1.866F100.0(GCodeLinearMoveXValYValZValFVal)
G01X44.309Y0.0Z1.866F840.0(GCodeLinearMoveXValYValZValFVal)
G01X45.293Y0.0Z1.866(GCodeLinearMoveXValYValZVal)
G01X45.293Y7.475Z1.866(GCodeLinearMoveXValYValZVal)
G01X45.293Y7.575Z2.676F100.0(GCodeLinearMoveXValYValZValFVal)
G01X45.293Y7.674Z2.767F840.0(GCodeLinearMoveXValYValZValFVal)
G01X45.293Y7.774Z2.795(GCodeLinearMoveXValYValZVal)
G01X45.293Y15.746Z2.795(GCodeLinearMoveXValYValZVal)
G01X45.293Y15.846Z2.767(GCodeLinearMoveXValYValZVal)
G01X45.293Y15.945Z2.676(GCodeLinearMoveXValYValZVal)
G01X45.293Y16.045Z1.866F100.0(GCodeLinearMoveXValYValZValFVal)
G01X45.293Y23.52Z1.866F840.0(GCodeLinearMoveXValYValZValFVal)
G01X46.278Y23.52Z1.866(GCodeLinearMoveXValYValZVal)
G01X46.278Y14.949Z1.866(GCodeLinearMoveXValYValZVal)
G01X46.278Y14.849Z2.679F100.0(GCodeLinearMoveXValYValZValFVal)
G01X46.278Y14.749Z2.751F840.0(GCodeLinearMoveXValYValZValFVal)
G01X46.278Y14.55Z2.797(GCodeLinearMoveXValYValZVal)
G01X46.278Y8.87Z2.783(GCodeLinearMoveXValYValZVal)
G01X46.278Y8.771Z2.751(GCodeLinearMoveXValYValZVal)
G01X46.278Y8.671Z2.679(GCodeLinearMoveXValYValZVal)
G01X46.278Y8.571Z1.866F100.0(GCodeLinearMoveXValYValZValFVal)
G01X46.278Y0.0Z1.866F840.0(GCodeLinearMoveXValYValZValFVal)
G01X47.263Y0.0Z1.866(GCodeLinearMoveXValYValZVal)
G01X47.263Y23.52Z1.866(GCodeLinearMoveXValYValZVal)
G00Z4.0(GCodeFastMoveZVal)
G00X0.0Y0.0(GCodeFastMoveXValYVal)
G00Z2.066(GCodeFastMoveZVal)
G01Z0.933F100.0(GCodeLinearMoveZValFVal)
G01X0.0Y23.52Z0.933F840.0(GCodeLinearMoveXValYValZValFVal)
G01X0.985Y23.52Z0.933(GCodeLinearMoveXValYValZVal)
G01X0.985Y16.543Z0.933(GCodeLinearMoveXValYValZVal)
G01X0.985Y16.444Z2.623F100.0(GCodeLinearMoveXValYValZValFVal)
G01X0.985Y16.344Z2.716F840.0(GCodeLinearMoveXValYValZValFVal)
G01X0.985Y16.145Z2.779(GCodeLinearMoveXValYValZVal)
G01X0.985Y15.646Z2.799(GCodeLinearMoveXValYValZVal)
G01X0.985Y7.475Z2.793(GCodeLinearMoveXValYValZVal)
G01X0.985Y7.276Z2.755(GCodeLinearMoveXValYValZVal)
G01X0.985Y7.176Z2.716(GCodeLinearMoveXValYValZVal)
G01X0.985Y7.076Z2.623(GCodeLinearMoveXValYValZVal)
G01X0.985Y6.977Z0.933F100.0(GCodeLinearMoveXValYValZValFVal)
G01X0.985Y0.0Z0.933F840.0(GCodeLinearMoveXValYValZValFVal)
G01X1.97Y0.0Z0.933(GCodeLinearMoveXValYValZVal)
G01X1.97Y5.183Z0.933(GCodeLinearMoveXValYValZVal)
G01X1.97Y5.283Z2.672F100.0(GCodeLinearMoveXValYValZValFVal)
G01X1.97Y5.382Z2.75F840.0(GCodeLinearMoveXValYValZValFVal)
G01X1.97Y5.582Z2.796(GCodeLinearMoveXValYValZVal)
G01X1.97Y17.938Z2.796(GCodeLinearMoveXValYValZVal)
G01X1.97Y18.138Z2.75(GCodeLinearMoveXValYValZVal)
G01X1.97Y18.237Z2.672(GCodeLinearMoveXValYValZVal)
G01X1.97Y18.337Z0.933F100.0(GCodeLinearMoveXValYValZValFVal)
G01X1.97Y23.52Z0.933F840.0(GCodeLinearMoveXValYValZValFVal)
G01X2.954Y23.52Z0.933(GCodeLinearMoveXValYValZVal)
G01X2.954Y19.633Z0.933(GCodeLinearMoveXValYValZVal)
G01X2.954Y19.533Z2.642F100.0(GCodeLinearMoveXValYValZValFVal)
G01X2.954Y19.433Z2.749F840.0(GCodeLinearMoveXValYValZValFVal)
G01X2.954Y19.334Z2.786(GCodeLinearMoveXValYValZVal)
G01X2.954Y4.286Z2.799(GCodeLinearMoveXValYValZVal)
G01X2.954Y4.186Z2.786(GCodeLinearMoveXValYValZVal)
G01X2.954Y4.087Z2.749(GCodeLinearMoveXValYValZVal)
G01X2.954Y3.987Z2.642(GCodeLinearMoveXValYValZVal)
G01X2.954Y3.887Z0.933F100.0(GCodeLinearMoveXValYValZValFVal)
G01X2.954Y0.0Z0.933F840.0(GCodeLinearMoveXValYValZValFVal)
G01X3.939Y0.0Z0.933(GCodeLinearMoveXValYValZVal)
G01X3.939Y2.99Z0.933(GCodeLinearMoveXValYValZVal)
G01X3.939Y3.09Z2.751F100.0(GCodeLinearMoveXValYValZValFVal)
G01X3.939Y3.19Z2.792F840.0(GCodeLinearMoveXValYValZValFVal)
G01X3.939Y20.33Z2.792(GCodeLinearMoveXValYValZVal)
G01X3.939Y20.43Z2.751(GCodeLinearMoveXValYValZVal)
G01X3.939Y20.53Z0.933F100.0(GCodeLinearMoveXValYValZValFVal)
G01X3.939Y23.52Z0.933F840.0(GCodeLinearMoveXValYValZValFVal)
G01X4.924Y23.52Z0.933(GCodeLinearMoveXValYValZVal)
G01X4.924Y21.327Z0.933(GCodeLinearMoveXValYValZVal)
G01X4.924Y21.227Z2.749F100.0(GCodeLinearMoveXValYValZValFVal)
G01X4.924Y21.128Z2.793F840.0(GCodeLinearMoveXValYValZValFVal)
G01X4.924Y15.248Z2.787(GCodeLinearMoveXValYValZVal)
G01X4.924Y15.048Z2.73(GCodeLinearMoveXValYValZVal)
G01X4.924Y14.849Z2.57(GCodeLinearMoveXValYValZVal)
G01X4.924Y14.65Z2.514(GCodeLinearMoveXValYValZVal)
G01X4.924Y8.97Z2.504(GCodeLinearMoveXValYValZVal)
G01X4.924Y8.771Z2.532(GCodeLinearMoveXValYValZVal)
G01X4.924Y8.671Z2.57(GCodeLinearMoveXValYValZVal)
G01X4.924Y8.472Z2.73(GCodeLinearMoveXValYValZVal)
G01X4.924Y8.272Z2.787(GCodeLinearMoveXValYValZVal)
G01X4.924Y2.392Z2.793(GCodeLinearMoveXValYValZVal)
G01X4.924Y2.293Z2.749(GCodeLinearMoveXValYValZVal)
G01X4.924Y2.193Z0.933F100.0(GCodeLinearMoveXValYValZValFVal)
G01X4.924Y0.0Z0.933F840.0(GCodeLinearMoveXValYValZValFVal)
G01X5.908Y0.0Z0.933(GCodeLinearMoveXValYValZVal)
G01X5.908Y1.495Z0.933(GCodeLinearMoveXValYValZVal)
G01X5.908Y1.595Z2.692F100.0(GCodeLinearMoveXValYValZValFVal)
G01X5.908Y1.695Z2.777F840.0(GCodeLinearMoveXValYValZValFVal)
G01X5.908Y1.794Z2.799(GCodeLinearMoveXValYValZVal)
G01X5.908Y6.777Z2.791(GCodeLinearMoveXValYValZVal)
G01X5.908Y6.877Z2.761(GCodeLinearMoveXValYValZVal)
G01X5.908Y6.977Z2.689(GCodeLinearMoveXValYValZVal)
G01X5.908Y7.076Z2.563(GCodeLinearMoveXValYValZVal)
G01X5.908Y7.176Z2.518(GCodeLinearMoveXValYValZVal)
G01X5.908Y7.575Z2.5(GCodeLinearMoveXValYValZVal)
G01X5.908Y16.344Z2.518(GCodeLinearMoveXValYValZVal)
G01X5.908Y16.444Z2.563(GCodeLinearMoveXValYValZVal)
G01X5.908Y16.543Z2.689(GCodeLinearMoveXValYValZVal)
G01X5.908Y16.643Z2.761(GCodeLinearMoveXValYValZVal)
G01X5.908Y16.743Z2.791(GCodeLinearMoveXValYValZVal)
G01X5.908Y21.726Z2.799(GCodeLinearMoveXValYValZVal)
G01X5.908Y21.825Z2.777(GCodeLinearMoveXValYValZVal)
G01X5.908Y21.925Z2.692(GCodeLinearMoveXValYValZVal)
G01X5.908Y22.025Z0.933F100.0(GCodeLinearMoveXValYValZValFVal)
G01X5.908Y23.52Z0.933F840.0(GCodeLinearMoveXValYValZValFVal)
G01X6.893Y23.52Z0.933(GCodeLinearMoveXValYValZVal)
G01X6.893Y22.523Z0.933(GCodeLinearMoveXValYValZVal)
G01X6.893Y22.423Z2.696F100.0(GCodeLinearMoveXValYValZValFVal)
G01X6.893Y22.324Z2.78F840.0(GCodeLinearMoveXValYValZValFVal)
G01X6.893Y17.839Z2.799(GCodeLinearMoveXValYValZVal)
G01X6.893Y17.739Z2.796(GCodeLinearMoveXValYValZVal)
G01X6.893Y17.64Z2.77(GCodeLinearMoveXValYValZVal)
G01X6.893Y17.54Z2.681(GCodeLinearMoveXValYValZVal)
G01X6.893Y17.44Z2.552(GCodeLinearMoveXValYValZVal)
G01X6.893Y17.341Z2.509(GCodeLinearMoveXValYValZVal)
G01X6.893Y6.179Z2.509(GCodeLinearMoveXValYValZVal)
G01X6.893Y6.08Z2.552(GCodeLinearMoveXValYValZVal)
G01X6.893Y5.98Z2.68(GCodeLinearMoveXValYValZVal)
G01X6.893Y5.88Z2.77(GCodeLinearMoveXValYValZVal)
G01X6.893Y5.781Z2.796(GCodeLinearMoveXValYValZVal)
G01X6.893Y1.296Z2.799(GCodeLinearMoveXValYValZVal)
G01X6.893Y1.196Z2.78(GCodeLinearMoveXValYValZVal)
G01X6.893Y1.097Z2.696(GCodeLinearMoveXValYValZVal)
G01X6.893Y0.997Z0.933F100.0(GCodeLinearMoveXValYValZValFVal)
G01X6.893Y0.0Z0.933F840.0(GCodeLinearMoveXValYValZValFVal)
G01X7.878Y0.0Z0.933(GCodeLinearMoveXValYValZVal)
G01X7.878Y0.598Z0.933(GCodeLinearMoveXValYValZVal)
G01X7.878Y0.698Z2.685F100.0(GCodeLinearMoveXValYValZValFVal)
G01X7.878Y0.798Z2.779F840.0(GCodeLinearMoveXValYValZValFVal)
G01X7.878Y0.897Z2.799(GCodeLinearMoveXValYValZVal)
G01X7.878Y5.083Z2.798(GCodeLinearMoveXValYValZVal)
G01X7.878Y5.183Z2.773(GCodeLinearMoveXValYValZVal)
G01X7.878Y5.382Z2.542(GCodeLinearMoveXValYValZVal)
G01X7.878Y5.482Z2.504(GCodeLinearMoveXValYValZVal)
G01X7.878Y18.038Z2.504(GCodeLinearMoveXValYValZVal)
G01X7.878Y18.138Z2.542(GCodeLinearMoveXValYValZVal)
G01X7.878Y18.337Z2.773(GCodeLinearMoveXValYValZVal)
G01X7.878Y18.437Z2.798(GCodeLinearMoveXValYValZVal)
G01X7.878Y22.623Z2.799(GCodeLinearMoveXValYValZVal)
G01X7.878Y22.722Z2.779(GCodeLinearMoveXValYValZVal)
G01X7.878Y22.822Z2.685(GCodeLinearMoveXValYValZVal)
G01X7.878Y22.922Z0.933F100.0(GCodeLinearMoveXValYValZValFVal)
G01X7.878Y23.52Z0.933F840.0(GCodeLinearMoveXValYValZValFVal)
G01X8.862Y23.52Z0.933(GCodeLinearMoveXValYValZVal)
G01X8.862Y23.221Z0.933(GCodeLinearMoveXValYValZVal)
G01X8.862Y23.121Z2.68F100.0(GCodeLinearMoveXValYValZValFVal)
G01X8.862Y23.021Z2.779F840.0(GCodeLinearMoveXValYValZValFVal)
G01X8.862Y22.922Z2.799(GCodeLinearMoveXValYValZVal)
G01X8.862Y18.935Z2.799(GCodeLinearMoveXValYValZVal)
G01X8.862Y18.835Z2.778(GCodeLinearMoveXValYValZVal)
G01X8.862Y18.636Z2.538(GCodeLinearMoveXValYValZVal)
G01X8.862Y18.536Z2.502(GCodeLinearMoveXValYValZVal)
G01X8.862Y4.984Z2.502(GCodeLinearMoveXValYValZVal)
G01X8.862Y4.884Z2.538(GCodeLinearMoveXValYValZVal)
G01X8.862Y4.685Z2.778(GCodeLinearMoveXValYValZVal)
G01X8.862Y4.585Z2.799(GCodeLinearMoveXValYValZVal)
G01X8.862Y0.499Z2.779(GCodeLinearMoveXValYValZVal)
G01X8.862Y0.399Z2.68(GCodeLinearMoveXValYValZVal)
G01X8.862Y0.299Z0.933F100.0(GCodeLinearMoveXValYValZValFVal)
G01X8.862Y0.0Z0.933F840.0(GCodeLinearMoveXValYValZValFVal)
G01X9.847Y0.0Z0.933(GCodeLinearMoveXValYValZVal)
G01X9.847Y0.1Z0.933(GCodeLinearMoveXValYValZVal)
G01X9.847Y0.2Z2.698F100.0(GCodeLinearMoveXValYValZValFVal)
G01X9.847Y0.299Z2.783F840.0(GCodeLinearMoveXValYValZValFVal)
G01X9.847Y4.286Z2.797(GCodeLinearMoveXValYValZVal)
G01X9.847Y4.386Z2.763(GCodeLinearMoveXValYValZVal)
G01X9.847Y4.485Z2.602(GCodeLinearMoveXValYValZVal)
G01X9.847Y4.585Z2.518(GCodeLinearMoveXValYValZVal)
G01X9.847Y4.784Z2.5(GCodeLinearMoveXValYValZVal)
G01X9.847Y18.935Z2.518(GCodeLinearMoveXValYValZVal)
G01X9.847Y19.035Z2.602(GCodeLinearMoveXValYValZVal)
G01X9.847Y19.134Z2.763(GCodeLinearMoveXValYValZVal)
G01X9.847Y19.234Z2.797(GCodeLinearMoveXValYValZVal)
G01X9.847Y23.221Z2.783(GCodeLinearMoveXValYValZVal)
G01X9.847Y23.32Z2.698(GCodeLinearMoveXValYValZVal)
G01X9.847Y23.42Z0.933F100.0(GCodeLinearMoveXValYValZValFVal)
G01X9.847Y23.52Z0.933F840.0(GCodeLinearMoveXValYValZValFVal)
G01X10.831Y23.52Z0.933(GCodeLinearMoveXValYValZVal)
G01X10.831Y23.42Z2.726F100.0(GCodeLinearMoveXValYValZValFVal)
G01X10.831Y23.32Z2.792F840.0(GCodeLinearMoveXValYValZValFVal)
G01X10.831Y19.433Z2.799(GCodeLinearMoveXValYValZVal)
G01X10.831Y19.334Z2.772(GCodeLinearMoveXValYValZVal)
G01X10.831Y19.234Z2.63(GCodeLinearMoveXValYValZVal)
G01X10.831Y19.134Z2.522(GCodeLinearMoveXValYValZVal)
G01X10.831Y19.035Z2.5(GCodeLinearMoveXValYValZVal)
G01X10.831Y4.485Z2.5(GCodeLinearMoveXValYValZVal)
G01X10.831Y4.386Z2.522(GCodeLinearMoveXValYValZVal)
G01X10.831Y4.286Z2.63(GCodeLinearMoveXValYValZVal)
G01X10.831Y4.186Z2.772(GCodeLinearMoveXValYValZVal)
G01X10.831Y4.087Z2.799(GCodeLinearMoveXValYValZVal)
G01X10.831Y0.2Z2.792(GCodeLinearMoveXValYValZVal)
G01X10.831Y0.1Z2.727(GCodeLinearMoveXValYValZVal)
G01X10.831Y0.0Z0.933F100.0(GCodeLinearMoveXValYValZValFVal)
G01X11.815Y0.0Z0.933F840.0(GCodeLinearMoveXValYValZValFVal)
G01X11.815Y0.1Z2.764F100.0(GCodeLinearMoveXValYValZValFVal)
G01X11.815Y0.2Z2.798F840.0(GCodeLinearMoveXValYValZValFVal)
G01X11.815Y4.087Z2.789(GCodeLinearMoveXValYValZVal)
G01X11.815Y4.186Z2.719(GCodeLinearMoveXValYValZVal)
G01X11.815Y4.286Z2.55(GCodeLinearMoveXValYValZVal)
G01X11.815Y4.386Z2.503(GCodeLinearMoveXValYValZVal)
G01X11.815Y19.134Z2.503(GCodeLinearMoveXValYValZVal)
G01X11.815Y19.234Z2.55(GCodeLinearMoveXValYValZVal)
G01X11.815Y19.334Z2.719(GCodeLinearMoveXValYValZVal)
G01X11.815Y19.433Z2.789(GCodeLinearMoveXValYValZVal)
G01X11.815Y23.32Z2.798(GCodeLinearMoveXValYValZVal)
G01X11.815Y23.42Z2.764(GCodeLinearMoveXValYValZVal)
G01X11.815Y23.52Z0.933F100.0(GCodeLinearMoveXValYValZValFVal)
G01X12.8Y23.52Z0.933F840.0(GCodeLinearMoveXValYValZValFVal)
G01X12.8Y23.42Z0.933(GCodeLinearMoveXValYValZVal)
G01X12.8Y23.32Z2.761F100.0(GCodeLinearMoveXValYValZValFVal)
G01X12.8Y23.221Z2.797F840.0(GCodeLinearMoveXValYValZValFVal)
G01X12.8Y19.035Z2.797(GCodeLinearMoveXValYValZVal)
G01X12.8Y18.935Z2.779(GCodeLinearMoveXValYValZVal)
G01X12.8Y18.835Z2.729(GCodeLinearMoveXValYValZVal)
G01X12.8Y18.736Z2.614(GCodeLinearMoveXValYValZVal)
G01X12.8Y18.636Z2.547(GCodeLinearMoveXValYValZVal)
G01X12.8Y18.437Z2.504(GCodeLinearMoveXValYValZVal)
G01X12.8Y5.083Z2.504(GCodeLinearMoveXValYValZVal)
G01X12.8Y4.884Z2.547(GCodeLinearMoveXValYValZVal)
G01X12.8Y4.784Z2.614(GCodeLinearMoveXValYValZVal)
G01X12.8Y4.685Z2.729(GCodeLinearMoveXValYValZVal)
G01X12.8Y4.585Z2.779(GCodeLinearMoveXValYValZVal)
G01X12.8Y4.386Z2.799(GCodeLinearMoveXValYValZVal)
G01X12.8Y0.299Z2.797(GCodeLinearMoveXValYValZVal)
G01X12.8Y0.2Z2.761(GCodeLinearMoveXValYValZVal)
G01X12.8Y0.1Z0.933F100.0(GCodeLinearMoveXValYValZValFVal)
G01X12.8Y0.0Z0.933F840.0(GCodeLinearMoveXValYValZValFVal)
G01X13.784Y0.0Z0.933(GCodeLinearMoveXValYValZVal)
G01X13.784Y0.399Z0.933(GCodeLinearMoveXValYValZVal)
G01X13.784Y0.499Z2.761F100.0(GCodeLinearMoveXValYValZValFVal)
G01X13.784Y0.598Z2.797F840.0(GCodeLinearMoveXValYValZValFVal)
G01X13.784Y7.973Z2.796(GCodeLinearMoveXValYValZVal)
G01X13.784Y8.173Z2.748(GCodeLinearMoveXValYValZVal)
G01X13.784Y8.272Z2.672(GCodeLinearMoveXValYValZVal)
G01X13.784Y8.372Z2.56(GCodeLinearMoveXValYValZVal)
G01X13.784Y8.472Z2.521(GCodeLinearMoveXValYValZVal)
G01X13.784Y8.771Z2.5(GCodeLinearMoveXValYValZVal)
G01X13.784Y14.949Z2.504(GCodeLinearMoveXValYValZVal)
G01X13.784Y15.048Z2.521(GCodeLinearMoveXValYValZVal)
G01X13.784Y15.148Z2.56(GCodeLinearMoveXValYValZVal)
G01X13.784Y15.248Z2.674(GCodeLinearMoveXValYValZVal)
G01X13.784Y15.347Z2.75(GCodeLinearMoveXValYValZVal)
G01X13.784Y15.547Z2.796(GCodeLinearMoveXValYValZVal)
G01X13.784Y22.922Z2.797(GCodeLinearMoveXValYValZVal)
G01X13.784Y23.021Z2.761(GCodeLinearMoveXValYValZVal)
G01X13.784Y23.121Z0.933F100.0(GCodeLinearMoveXValYValZValFVal)
G01X13.784Y23.52Z0.933F840.0(GCodeLinearMoveXValYValZValFVal)
G01X14.769Y23.52Z0.933(GCodeLinearMoveXValYValZVal)
G01X14.769Y22.623Z0.933(GCodeLinearMoveXValYValZVal)
G01X14.769Y22.523Z2.751F100.0(GCodeLinearMoveXValYValZValFVal)
G01X14.769Y22.423Z2.793F840.0(GCodeLinearMoveXValYValZValFVal)
G01X14.769Y14.351Z2.798(GCodeLinearMoveXValYValZVal)
G01X14.769Y14.251Z2.775(GCodeLinearMoveXValYValZVal)
G01X14.769Y14.151Z2.702(GCodeLinearMoveXValYValZVal)
G01X14.769Y14.052Z2.556(GCodeLinearMoveXValYValZVal)
G01X14.769Y13.952Z2.511(GCodeLinearMoveXValYValZVal)
G01X14.769Y9.668Z2.5(GCodeLinearMoveXValYValZVal)
G01X14.769Y9.568Z2.511(GCodeLinearMoveXValYValZVal)
G01X14.769Y9.468Z2.556(GCodeLinearMoveXValYValZVal)
G01X14.769Y9.369Z2.703(GCodeLinearMoveXValYValZVal)
G01X14.769Y9.269Z2.775(GCodeLinearMoveXValYValZVal)
G01X14.769Y9.07Z2.799(GCodeLinearMoveXValYValZVal)
G01X14.769Y1.097Z2.793(GCodeLinearMoveXValYValZVal)
G01X14.769Y0.997Z2.751(GCodeLinearMoveXValYValZVal)
G01X14.769Y0.897Z0.933F100.0(GCodeLinearMoveXValYValZValFVal)
G01X14.769Y0.0Z0.933F840.0(GCodeLinearMoveXValYValZValFVal)
G01X15.754Y0.0Z0.933(GCodeLinearMoveXValYValZVal)
G01X15.754Y1.695Z0.933(GCodeLinearMoveXValYValZVal)
G01X15.754Y1.794Z2.715F100.0(GCodeLinearMoveXValYValZValFVal)
G01X15.754Y1.894Z2.775F840.0(GCodeLinearMoveXValYValZValFVal)
G01X15.754Y2.193Z2.799(GCodeLinearMoveXValYValZVal)
G01X15.754Y9.867Z2.79(GCodeLinearMoveXValYValZVal)
G01X15.754Y9.967Z2.734(GCodeLinearMoveXValYValZVal)
G01X15.754Y10.066Z2.566(GCodeLinearMoveXValYValZVal)
G01X15.754Y10.166Z2.509(GCodeLinearMoveXValYValZVal)
G01X15.754Y13.354Z2.509(GCodeLinearMoveXValYValZVal)
G01X15.754Y13.454Z2.566(GCodeLinearMoveXValYValZVal)
G01X15.754Y13.553Z2.735(GCodeLinearMoveXValYValZVal)
G01X15.754Y13.653Z2.79(GCodeLinearMoveXValYValZVal)
G01X15.754Y21.526Z2.796(GCodeLinearMoveXValYValZVal)
G01X15.754Y21.626Z2.775(GCodeLinearMoveXValYValZVal)
G01X15.754Y21.726Z2.715(GCodeLinearMoveXValYValZVal)
G01X15.754Y21.825Z0.933F100.0(GCodeLinearMoveXValYValZValFVal)
G01X15.754Y23.52Z0.933F840.0(GCodeLinearMoveXValYValZValFVal)
G01X16.738Y23.52Z0.933(GCodeLinearMoveXValYValZVal)
G01X16.738Y20.33Z0.933(GCodeLinearMoveXValYValZVal)
G01X16.738Y20.231Z2.71F100.0(GCodeLinearMoveXValYValZValFVal)
G01X16.738Y20.031Z2.78F840.0(GCodeLinearMoveXValYValZValFVal)
G01X16.738Y13.354Z2.799(GCodeLinearMoveXValYValZVal)
G01X16.738Y13.254Z2.767(GCodeLinearMoveXValYValZVal)
G01X16.738Y13.155Z2.621(GCodeLinearMoveXValYValZVal)
G01X16.738Y13.055Z2.518(GCodeLinearMoveXValYValZVal)
G01X16.738Y10.565Z2.5(GCodeLinearMoveXValYValZVal)
G01X16.738Y10.465Z2.518(GCodeLinearMoveXValYValZVal)
G01X16.738Y10.365Z2.621(GCodeLinearMoveXValYValZVal)
G01X16.738Y10.266Z2.767(GCodeLinearMoveXValYValZVal)
G01X16.738Y10.166Z2.798(GCodeLinearMoveXValYValZVal)
G01X16.738Y3.588Z2.794(GCodeLinearMoveXValYValZVal)
G01X16.738Y3.389Z2.755(GCodeLinearMoveXValYValZVal)
G01X16.738Y3.289Z2.71(GCodeLinearMoveXValYValZVal)
G01X16.738Y3.19Z0.933F100.0(GCodeLinearMoveXValYValZValFVal)
G01X16.738Y0.0Z0.933F840.0(GCodeLinearMoveXValYValZValFVal)
G01X17.723Y0.0Z0.933(GCodeLinearMoveXValYValZVal)
G01X17.723Y6.179Z0.933(GCodeLinearMoveXValYValZVal)
G01X17.723Y6.279Z2.697F100.0(GCodeLinearMoveXValYValZValFVal)
G01X17.723Y6.379Z2.783F840.0(GCodeLinearMoveXValYValZValFVal)
G01X17.723Y6.578Z2.799(GCodeLinearMoveXValYValZVal)
G01X17.723Y10.266Z2.799(GCodeLinearMoveXValYValZVal)
G01X17.723Y10.365Z2.776(GCodeLinearMoveXValYValZVal)
G01X17.723Y10.565Z2.525(GCodeLinearMoveXValYValZVal)
G01X17.723Y10.664Z2.5(GCodeLinearMoveXValYValZVal)
G01X17.723Y12.856Z2.5(GCodeLinearMoveXValYValZVal)
G01X17.723Y12.955Z2.525(GCodeLinearMoveXValYValZVal)
G01X17.723Y13.155Z2.776(GCodeLinearMoveXValYValZVal)
G01X17.723Y13.254Z2.799(GCodeLinearMoveXValYValZVal)
G01X17.723Y17.141Z2.783(GCodeLinearMoveXValYValZVal)
G01X17.723Y17.241Z2.697(GCodeLinearMoveXValYValZVal)
G01X17.723Y17.341Z0.933F100.0(GCodeLinearMoveXValYValZValFVal)
G01X17.723Y23.52Z0.933F840.0(GCodeLinearMoveXValYValZValFVal)
G01X18.708Y23.52Z0.933(GCodeLinearMoveXValYValZVal)
G01X18.708Y17.341Z0.933(GCodeLinearMoveXValYValZVal)
G01X18.708Y17.241Z2.68F100.0(GCodeLinearMoveXValYValZValFVal)
G01X18.708Y17.141Z2.78F840.0(GCodeLinearMoveXValYValZValFVal)
G01X18.708Y13.254Z2.799(GCodeLinearMoveXValYValZVal)
G01X18.708Y13.155Z2.776(GCodeLinearMoveXValYValZVal)
G01X18.708Y12.955Z2.524(GCodeLinearMoveXValYValZVal)
G01X18.708Y12.856Z2.5(GCodeLinearMoveXValYValZVal)
G01X18.708Y10.664Z2.5(GCodeLinearMoveXValYValZVal)
G01X18.708Y10.565Z2.524(GCodeLinearMoveXValYValZVal)
G01X18.708Y10.365Z2.776(GCodeLinearMoveXValYValZVal)
G01X18.708Y10.266Z2.799(GCodeLinearMoveXValYValZVal)
G01X18.708Y6.379Z2.78(GCodeLinearMoveXValYValZVal)
G01X18.708Y6.279Z2.68(GCodeLinearMoveXValYValZVal)
G01X18.708Y6.179Z0.933F100.0(GCodeLinearMoveXValYValZValFVal)
G01X18.708Y0.0Z0.933F840.0(GCodeLinearMoveXValYValZValFVal)
G01X19.692Y0.0Z0.933(GCodeLinearMoveXValYValZVal)
G01X19.692Y6.179Z0.933(GCodeLinearMoveXValYValZVal)
G01X19.692Y6.279Z2.68F100.0(GCodeLinearMoveXValYValZValFVal)
G01X19.692Y6.379Z2.78F840.0(GCodeLinearMoveXValYValZValFVal)
G01X19.692Y10.266Z2.799(GCodeLinearMoveXValYValZVal)
G01X19.692Y10.365Z2.776(GCodeLinearMoveXValYValZVal)
G01X19.692Y10.565Z2.525(GCodeLinearMoveXValYValZVal)
G01X19.692Y10.664Z2.5(GCodeLinearMoveXValYValZVal)
G01X19.692Y12.856Z2.5(GCodeLinearMoveXValYValZVal)
G01X19.692Y12.955Z2.525(GCodeLinearMoveXValYValZVal)
G01X19.692Y13.155Z2.776(GCodeLinearMoveXValYValZVal)
G01X19.692Y13.254Z2.799(GCodeLinearMoveXValYValZVal)
G01X19.692Y17.141Z2.78(GCodeLinearMoveXValYValZVal)
G01X19.692Y17.241Z2.68(GCodeLinearMoveXValYValZVal)
G01X19.692Y17.341Z0.933F100.0(GCodeLinearMoveXValYValZValFVal)
G01X19.692Y23.52Z0.933F840.0(GCodeLinearMoveXValYValZValFVal)
G01X20.677Y23.52Z0.933(GCodeLinearMoveXValYValZVal)
G01X20.677Y17.341Z0.933(GCodeLinearMoveXValYValZVal)
G01X20.677Y17.241Z2.68F100.0(GCodeLinearMoveXValYValZValFVal)
G01X20.677Y17.141Z2.78F840.0(GCodeLinearMoveXValYValZValFVal)
G01X20.677Y13.254Z2.799(GCodeLinearMoveXValYValZVal)
G01X20.677Y13.155Z2.776(GCodeLinearMoveXValYValZVal)
G01X20.677Y12.955Z2.525(GCodeLinearMoveXValYValZVal)
G01X20.677Y12.856Z2.5(GCodeLinearMoveXValYValZVal)
G01X20.677Y10.664Z2.5(GCodeLinearMoveXValYValZVal)
G01X20.677Y10.565Z2.525(GCodeLinearMoveXValYValZVal)
G01X20.677Y10.365Z2.776(GCodeLinearMoveXValYValZVal)
G01X20.677Y10.266Z2.799(GCodeLinearMoveXValYValZVal)
G01X20.677Y6.379Z2.78(GCodeLinearMoveXValYValZVal)
G01X20.677Y6.279Z2.68(GCodeLinearMoveXValYValZVal)
G01X20.677Y6.179Z0.933F100.0(GCodeLinearMoveXValYValZValFVal)
G01X20.677Y0.0Z0.933F840.0(GCodeLinearMoveXValYValZValFVal)
G01X21.662Y0.0Z0.933(GCodeLinearMoveXValYValZVal)
G01X21.662Y6.179Z0.933(GCodeLinearMoveXValYValZVal)
G01X21.662Y6.279Z2.68F100.0(GCodeLinearMoveXValYValZValFVal)
G01X21.662Y6.379Z2.78F840.0(GCodeLinearMoveXValYValZValFVal)
G01X21.662Y10.266Z2.799(GCodeLinearMoveXValYValZVal)
G01X21.662Y10.365Z2.776(GCodeLinearMoveXValYValZVal)
G01X21.662Y10.565Z2.525(GCodeLinearMoveXValYValZVal)
G01X21.662Y10.664Z2.5(GCodeLinearMoveXValYValZVal)
G01X21.662Y12.856Z2.5(GCodeLinearMoveXValYValZVal)
G01X21.662Y12.955Z2.525(GCodeLinearMoveXValYValZVal)
G01X21.662Y13.155Z2.776(GCodeLinearMoveXValYValZVal)
G01X21.662Y13.254Z2.799(GCodeLinearMoveXValYValZVal)
G01X21.662Y17.141Z2.78(GCodeLinearMoveXValYValZVal)
G01X21.662Y17.241Z2.68(GCodeLinearMoveXValYValZVal)
G01X21.662Y17.341Z0.933F100.0(GCodeLinearMoveXValYValZValFVal)
G01X21.662Y23.52Z0.933F840.0(GCodeLinearMoveXValYValZValFVal)
G01X22.646Y23.52Z0.933(GCodeLinearMoveXValYValZVal)
G01X22.646Y17.341Z0.933(GCodeLinearMoveXValYValZVal)
G01X22.646Y17.241Z2.68F100.0(GCodeLinearMoveXValYValZValFVal)
G01X22.646Y17.141Z2.78F840.0(GCodeLinearMoveXValYValZValFVal)
G01X22.646Y13.254Z2.799(GCodeLinearMoveXValYValZVal)
G01X22.646Y13.155Z2.776(GCodeLinearMoveXValYValZVal)
G01X22.646Y12.955Z2.525(GCodeLinearMoveXValYValZVal)
G01X22.646Y12.856Z2.5(GCodeLinearMoveXValYValZVal)
G01X22.646Y10.664Z2.5(GCodeLinearMoveXValYValZVal)
G01X22.646Y10.565Z2.525(GCodeLinearMoveXValYValZVal)
G01X22.646Y10.365Z2.776(GCodeLinearMoveXValYValZVal)
G01X22.646Y10.266Z2.799(GCodeLinearMoveXValYValZVal)
G01X22.646Y6.379Z2.78(GCodeLinearMoveXValYValZVal)
G01X22.646Y6.279Z2.68(GCodeLinearMoveXValYValZVal)
G01X22.646Y6.179Z0.933F100.0(GCodeLinearMoveXValYValZValFVal)
G01X22.646Y0.0Z0.933F840.0(GCodeLinearMoveXValYValZValFVal)
G01X23.631Y0.0Z0.933(GCodeLinearMoveXValYValZVal)
G01X23.631Y6.179Z0.933(GCodeLinearMoveXValYValZVal)
G01X23.631Y6.279Z2.68F100.0(GCodeLinearMoveXValYValZValFVal)
G01X23.631Y6.379Z2.78F840.0(GCodeLinearMoveXValYValZValFVal)
G01X23.631Y10.266Z2.799(GCodeLinearMoveXValYValZVal)
G01X23.631Y10.365Z2.776(GCodeLinearMoveXValYValZVal)
G01X23.631Y10.565Z2.525(GCodeLinearMoveXValYValZVal)
G01X23.631Y10.664Z2.5(GCodeLinearMoveXValYValZVal)
G01X23.631Y12.856Z2.5(GCodeLinearMoveXValYValZVal)
G01X23.631Y12.955Z2.525(GCodeLinearMoveXValYValZVal)
G01X23.631Y13.155Z2.776(GCodeLinearMoveXValYValZVal)
G01X23.631Y13.254Z2.799(GCodeLinearMoveXValYValZVal)
G01X23.631Y17.141Z2.78(GCodeLinearMoveXValYValZVal)
G01X23.631Y17.241Z2.68(GCodeLinearMoveXValYValZVal)
G01X23.631Y17.341Z0.933F100.0(GCodeLinearMoveXValYValZValFVal)
G01X23.631Y23.52Z0.933F840.0(GCodeLinearMoveXValYValZValFVal)
G01X24.616Y23.52Z0.933(GCodeLinearMoveXValYValZVal)
G01X24.616Y17.341Z0.933(GCodeLinearMoveXValYValZVal)
G01X24.616Y17.241Z2.68F100.0(GCodeLinearMoveXValYValZValFVal)
G01X24.616Y17.141Z2.78F840.0(GCodeLinearMoveXValYValZValFVal)
G01X24.616Y13.254Z2.799(GCodeLinearMoveXValYValZVal)
G01X24.616Y13.155Z2.776(GCodeLinearMoveXValYValZVal)
G01X24.616Y12.955Z2.525(GCodeLinearMoveXValYValZVal)
G01X24.616Y12.856Z2.5(GCodeLinearMoveXValYValZVal)
G01X24.616Y10.664Z2.5(GCodeLinearMoveXValYValZVal)
G01X24.616Y10.565Z2.525(GCodeLinearMoveXValYValZVal)
G01X24.616Y10.365Z2.776(GCodeLinearMoveXValYValZVal)
G01X24.616Y10.266Z2.799(GCodeLinearMoveXValYValZVal)
G01X24.616Y6.379Z2.78(GCodeLinearMoveXValYValZVal)
G01X24.616Y6.279Z2.68(GCodeLinearMoveXValYValZVal)
G01X24.616Y6.179Z0.933F100.0(GCodeLinearMoveXValYValZValFVal)
G01X24.616Y0.0Z0.933F840.0(GCodeLinearMoveXValYValZValFVal)
G01X25.6Y0.0Z0.933(GCodeLinearMoveXValYValZVal)
G01X25.6Y6.179Z0.933(GCodeLinearMoveXValYValZVal)
G01X25.6Y6.279Z2.68F100.0(GCodeLinearMoveXValYValZValFVal)
G01X25.6Y6.379Z2.78F840.0(GCodeLinearMoveXValYValZValFVal)
G01X25.6Y10.266Z2.799(GCodeLinearMoveXValYValZVal)
G01X25.6Y10.365Z2.776(GCodeLinearMoveXValYValZVal)
G01X25.6Y10.565Z2.525(GCodeLinearMoveXValYValZVal)
G01X25.6Y10.664Z2.5(GCodeLinearMoveXValYValZVal)
G01X25.6Y12.856Z2.5(GCodeLinearMoveXValYValZVal)
G01X25.6Y12.955Z2.525(GCodeLinearMoveXValYValZVal)
G01X25.6Y13.155Z2.776(GCodeLinearMoveXValYValZVal)
G01X25.6Y13.254Z2.799(GCodeLinearMoveXValYValZVal)
G01X25.6Y17.141Z2.78(GCodeLinearMoveXValYValZVal)
G01X25.6Y17.241Z2.68(GCodeLinearMoveXValYValZVal)
G01X25.6Y17.341Z0.933F100.0(GCodeLinearMoveXValYValZValFVal)
G01X25.6Y23.52Z0.933F840.0(GCodeLinearMoveXValYValZValFVal)
G01X26.585Y23.52Z0.933(GCodeLinearMoveXValYValZVal)
G01X26.585Y17.341Z0.933(GCodeLinearMoveXValYValZVal)
G01X26.585Y17.241Z2.68F100.0(GCodeLinearMoveXValYValZValFVal)
G01X26.585Y17.141Z2.78F840.0(GCodeLinearMoveXValYValZValFVal)
G01X26.585Y13.254Z2.799(GCodeLinearMoveXValYValZVal)
G01X26.585Y13.155Z2.776(GCodeLinearMoveXValYValZVal)
G01X26.585Y12.955Z2.525(GCodeLinearMoveXValYValZVal)
G01X26.585Y12.856Z2.5(GCodeLinearMoveXValYValZVal)
G01X26.585Y10.664Z2.5(GCodeLinearMoveXValYValZVal)
G01X26.585Y10.565Z2.525(GCodeLinearMoveXValYValZVal)
G01X26.585Y10.365Z2.776(GCodeLinearMoveXValYValZVal)
G01X26.585Y10.266Z2.799(GCodeLinearMoveXValYValZVal)
G01X26.585Y6.379Z2.78(GCodeLinearMoveXValYValZVal)
G01X26.585Y6.279Z2.68(GCodeLinearMoveXValYValZVal)
G01X26.585Y6.179Z0.933F100.0(GCodeLinearMoveXValYValZValFVal)
G01X26.585Y0.0Z0.933F840.0(GCodeLinearMoveXValYValZValFVal)
G01X27.57Y0.0Z0.933(GCodeLinearMoveXValYValZVal)
G01X27.57Y6.179Z0.933(GCodeLinearMoveXValYValZVal)
G01X27.57Y6.279Z2.68F100.0(GCodeLinearMoveXValYValZValFVal)
G01X27.57Y6.379Z2.78F840.0(GCodeLinearMoveXValYValZValFVal)
G01X27.57Y10.266Z2.799(GCodeLinearMoveXValYValZVal)
G01X27.57Y10.365Z2.776(GCodeLinearMoveXValYValZVal)
G01X27.57Y10.565Z2.525(GCodeLinearMoveXValYValZVal)
G01X27.57Y10.664Z2.5(GCodeLinearMoveXValYValZVal)
G01X27.57Y12.856Z2.5(GCodeLinearMoveXValYValZVal)
G01X27.57Y12.955Z2.525(GCodeLinearMoveXValYValZVal)
G01X27.57Y13.155Z2.776(GCodeLinearMoveXValYValZVal)
G01X27.57Y13.254Z2.799(GCodeLinearMoveXValYValZVal)
G01X27.57Y17.141Z2.78(GCodeLinearMoveXValYValZVal)
G01X27.57Y17.241Z2.68(GCodeLinearMoveXValYValZVal)
G01X27.57Y17.341Z0.933F100.0(GCodeLinearMoveXValYValZValFVal)
G01X27.57Y23.52Z0.933F840.0(GCodeLinearMoveXValYValZValFVal)
G01X28.554Y23.52Z0.933(GCodeLinearMoveXValYValZVal)
G01X28.554Y17.341Z0.933(GCodeLinearMoveXValYValZVal)
G01X28.554Y17.241Z2.68F100.0(GCodeLinearMoveXValYValZValFVal)
G01X28.554Y17.141Z2.78F840.0(GCodeLinearMoveXValYValZValFVal)
G01X28.554Y13.254Z2.799(GCodeLinearMoveXValYValZVal)
G01X28.554Y13.155Z2.776(GCodeLinearMoveXValYValZVal)
G01X28.554Y12.955Z2.525(GCodeLinearMoveXValYValZVal)
G01X28.554Y12.856Z2.5(GCodeLinearMoveXValYValZVal)
G01X28.554Y10.664Z2.5(GCodeLinearMoveXValYValZVal)
G01X28.554Y10.565Z2.525(GCodeLinearMoveXValYValZVal)
G01X28.554Y10.365Z2.776(GCodeLinearMoveXValYValZVal)
G01X28.554Y10.266Z2.799(GCodeLinearMoveXValYValZVal)
G01X28.554Y6.379Z2.78(GCodeLinearMoveXValYValZVal)
G01X28.554Y6.279Z2.68(GCodeLinearMoveXValYValZVal)
G01X28.554Y6.179Z0.933F100.0(GCodeLinearMoveXValYValZValFVal)
G01X28.554Y0.0Z0.933F840.0(GCodeLinearMoveXValYValZValFVal)
G01X29.539Y0.0Z0.933(GCodeLinearMoveXValYValZVal)
G01X29.539Y6.179Z0.933(GCodeLinearMoveXValYValZVal)
G01X29.539Y6.279Z2.68F100.0(GCodeLinearMoveXValYValZValFVal)
G01X29.539Y6.379Z2.78F840.0(GCodeLinearMoveXValYValZValFVal)
G01X29.539Y10.266Z2.799(GCodeLinearMoveXValYValZVal)
G01X29.539Y10.365Z2.776(GCodeLinearMoveXValYValZVal)
G01X29.539Y10.565Z2.525(GCodeLinearMoveXValYValZVal)
G01X29.539Y10.664Z2.5(GCodeLinearMoveXValYValZVal)
G01X29.539Y12.856Z2.5(GCodeLinearMoveXValYValZVal)
G01X29.539Y12.955Z2.525(GCodeLinearMoveXValYValZVal)
G01X29.539Y13.155Z2.776(GCodeLinearMoveXValYValZVal)
G01X29.539Y13.254Z2.799(GCodeLinearMoveXValYValZVal)
G01X29.539Y17.141Z2.78(GCodeLinearMoveXValYValZVal)
G01X29.539Y17.241Z2.68(GCodeLinearMoveXValYValZVal)
G01X29.539Y17.341Z0.933F100.0(GCodeLinearMoveXValYValZValFVal)
G01X29.539Y23.52Z0.933F840.0(GCodeLinearMoveXValYValZValFVal)
G01X30.523Y23.52Z0.933(GCodeLinearMoveXValYValZVal)
G01X30.523Y17.341Z0.933(GCodeLinearMoveXValYValZVal)
G01X30.523Y17.241Z2.68F100.0(GCodeLinearMoveXValYValZValFVal)
G01X30.523Y17.141Z2.78F840.0(GCodeLinearMoveXValYValZValFVal)
G01X30.523Y13.254Z2.799(GCodeLinearMoveXValYValZVal)
G01X30.523Y13.155Z2.776(GCodeLinearMoveXValYValZVal)
G01X30.523Y12.955Z2.525(GCodeLinearMoveXValYValZVal)
G01X30.523Y12.856Z2.5(GCodeLinearMoveXValYValZVal)
G01X30.523Y10.664Z2.5(GCodeLinearMoveXValYValZVal)
G01X30.523Y10.565Z2.525(GCodeLinearMoveXValYValZVal)
G01X30.523Y10.365Z2.776(GCodeLinearMoveXValYValZVal)
G01X30.523Y10.266Z2.799(GCodeLinearMoveXValYValZVal)
G01X30.523Y6.379Z2.78(GCodeLinearMoveXValYValZVal)
G01X30.523Y6.279Z2.68(GCodeLinearMoveXValYValZVal)
G01X30.523Y6.179Z0.933F100.0(GCodeLinearMoveXValYValZValFVal)
G01X30.523Y0.0Z0.933F840.0(GCodeLinearMoveXValYValZValFVal)
G01X31.508Y0.0Z0.933(GCodeLinearMoveXValYValZVal)
G01X31.508Y6.179Z0.933(GCodeLinearMoveXValYValZVal)
G01X31.508Y6.279Z2.68F100.0(GCodeLinearMoveXValYValZValFVal)
G01X31.508Y6.379Z2.78F840.0(GCodeLinearMoveXValYValZValFVal)
G01X31.508Y10.266Z2.799(GCodeLinearMoveXValYValZVal)
G01X31.508Y10.365Z2.776(GCodeLinearMoveXValYValZVal)
G01X31.508Y10.565Z2.525(GCodeLinearMoveXValYValZVal)
G01X31.508Y10.664Z2.5(GCodeLinearMoveXValYValZVal)
G01X31.508Y12.856Z2.5(GCodeLinearMoveXValYValZVal)
G01X31.508Y12.955Z2.525(GCodeLinearMoveXValYValZVal)
G01X31.508Y13.155Z2.776(GCodeLinearMoveXValYValZVal)
G01X31.508Y13.254Z2.799(GCodeLinearMoveXValYValZVal)
G01X31.508Y17.141Z2.78(GCodeLinearMoveXValYValZVal)
G01X31.508Y17.241Z2.68(GCodeLinearMoveXValYValZVal)
G01X31.508Y17.341Z0.933F100.0(GCodeLinearMoveXValYValZValFVal)
G01X31.508Y23.52Z0.933F840.0(GCodeLinearMoveXValYValZValFVal)
G01X32.493Y23.52Z0.933(GCodeLinearMoveXValYValZVal)
G01X32.493Y17.341Z0.933(GCodeLinearMoveXValYValZVal)
G01X32.493Y17.241Z2.68F100.0(GCodeLinearMoveXValYValZValFVal)
G01X32.493Y17.141Z2.78F840.0(GCodeLinearMoveXValYValZValFVal)
G01X32.493Y13.254Z2.799(GCodeLinearMoveXValYValZVal)
G01X32.493Y13.155Z2.776(GCodeLinearMoveXValYValZVal)
G01X32.493Y12.955Z2.525(GCodeLinearMoveXValYValZVal)
G01X32.493Y12.856Z2.5(GCodeLinearMoveXValYValZVal)
G01X32.493Y10.664Z2.5(GCodeLinearMoveXValYValZVal)
G01X32.493Y10.565Z2.525(GCodeLinearMoveXValYValZVal)
G01X32.493Y10.365Z2.776(GCodeLinearMoveXValYValZVal)
G01X32.493Y10.266Z2.799(GCodeLinearMoveXValYValZVal)
G01X32.493Y6.379Z2.78(GCodeLinearMoveXValYValZVal)
G01X32.493Y6.279Z2.68(GCodeLinearMoveXValYValZVal)
G01X32.493Y6.179Z0.933F100.0(GCodeLinearMoveXValYValZValFVal)
G01X32.493Y0.0Z0.933F840.0(GCodeLinearMoveXValYValZValFVal)
G01X33.477Y0.0Z0.933(GCodeLinearMoveXValYValZVal)
G01X33.477Y6.179Z0.933(GCodeLinearMoveXValYValZVal)
G01X33.477Y6.279Z2.68F100.0(GCodeLinearMoveXValYValZValFVal)
G01X33.477Y6.379Z2.78F840.0(GCodeLinearMoveXValYValZValFVal)
G01X33.477Y10.266Z2.799(GCodeLinearMoveXValYValZVal)
G01X33.477Y10.365Z2.776(GCodeLinearMoveXValYValZVal)
G01X33.477Y10.565Z2.525(GCodeLinearMoveXValYValZVal)
G01X33.477Y10.664Z2.5(GCodeLinearMoveXValYValZVal)
G01X33.477Y12.856Z2.5(GCodeLinearMoveXValYValZVal)
G01X33.477Y12.955Z2.525(GCodeLinearMoveXValYValZVal)
G01X33.477Y13.155Z2.776(GCodeLinearMoveXValYValZVal)
G01X33.477Y13.254Z2.799(GCodeLinearMoveXValYValZVal)
G01X33.477Y17.141Z2.78(GCodeLinearMoveXValYValZVal)
G01X33.477Y17.241Z2.68(GCodeLinearMoveXValYValZVal)
G01X33.477Y17.341Z0.933F100.0(GCodeLinearMoveXValYValZValFVal)
G01X33.477Y23.52Z0.933F840.0(GCodeLinearMoveXValYValZValFVal)
G01X34.462Y23.52Z0.933(GCodeLinearMoveXValYValZVal)
G01X34.462Y17.341Z0.933(GCodeLinearMoveXValYValZVal)
G01X34.462Y17.241Z2.68F100.0(GCodeLinearMoveXValYValZValFVal)
G01X34.462Y17.141Z2.78F840.0(GCodeLinearMoveXValYValZValFVal)
G01X34.462Y13.254Z2.799(GCodeLinearMoveXValYValZVal)
G01X34.462Y13.155Z2.776(GCodeLinearMoveXValYValZVal)
G01X34.462Y12.955Z2.525(GCodeLinearMoveXValYValZVal)
G01X34.462Y12.856Z2.5(GCodeLinearMoveXValYValZVal)
G01X34.462Y10.664Z2.5(GCodeLinearMoveXValYValZVal)
G01X34.462Y10.565Z2.525(GCodeLinearMoveXValYValZVal)
G01X34.462Y10.365Z2.776(GCodeLinearMoveXValYValZVal)
G01X34.462Y10.266Z2.799(GCodeLinearMoveXValYValZVal)
G01X34.462Y6.379Z2.78(GCodeLinearMoveXValYValZVal)
G01X34.462Y6.279Z2.68(GCodeLinearMoveXValYValZVal)
G01X34.462Y6.179Z0.933F100.0(GCodeLinearMoveXValYValZValFVal)
G01X34.462Y0.0Z0.933F840.0(GCodeLinearMoveXValYValZValFVal)
G01X35.447Y0.0Z0.933(GCodeLinearMoveXValYValZVal)
G01X35.447Y6.179Z0.933(GCodeLinearMoveXValYValZVal)
G01X35.447Y6.279Z2.68F100.0(GCodeLinearMoveXValYValZValFVal)
G01X35.447Y6.379Z2.78F840.0(GCodeLinearMoveXValYValZValFVal)
G01X35.447Y10.266Z2.799(GCodeLinearMoveXValYValZVal)
G01X35.447Y10.365Z2.776(GCodeLinearMoveXValYValZVal)
G01X35.447Y10.565Z2.525(GCodeLinearMoveXValYValZVal)
G01X35.447Y10.664Z2.5(GCodeLinearMoveXValYValZVal)
G01X35.447Y12.856Z2.5(GCodeLinearMoveXValYValZVal)
G01X35.447Y12.955Z2.525(GCodeLinearMoveXValYValZVal)
G01X35.447Y13.155Z2.776(GCodeLinearMoveXValYValZVal)
G01X35.447Y13.254Z2.799(GCodeLinearMoveXValYValZVal)
G01X35.447Y17.141Z2.78(GCodeLinearMoveXValYValZVal)
G01X35.447Y17.241Z2.68(GCodeLinearMoveXValYValZVal)
G01X35.447Y17.341Z0.933F100.0(GCodeLinearMoveXValYValZValFVal)
G01X35.447Y23.52Z0.933F840.0(GCodeLinearMoveXValYValZValFVal)
G01X36.431Y23.52Z0.933(GCodeLinearMoveXValYValZVal)
G01X36.431Y17.341Z0.933(GCodeLinearMoveXValYValZVal)
G01X36.431Y17.241Z2.68F100.0(GCodeLinearMoveXValYValZValFVal)
G01X36.431Y17.141Z2.78F840.0(GCodeLinearMoveXValYValZValFVal)
G01X36.431Y13.254Z2.799(GCodeLinearMoveXValYValZVal)
G01X36.431Y13.155Z2.776(GCodeLinearMoveXValYValZVal)
G01X36.431Y12.955Z2.525(GCodeLinearMoveXValYValZVal)
G01X36.431Y12.856Z2.5(GCodeLinearMoveXValYValZVal)
G01X36.431Y10.664Z2.5(GCodeLinearMoveXValYValZVal)
G01X36.431Y10.565Z2.525(GCodeLinearMoveXValYValZVal)
G01X36.431Y10.365Z2.776(GCodeLinearMoveXValYValZVal)
G01X36.431Y10.266Z2.799(GCodeLinearMoveXValYValZVal)
G01X36.431Y6.379Z2.78(GCodeLinearMoveXValYValZVal)
G01X36.431Y6.279Z2.68(GCodeLinearMoveXValYValZVal)
G01X36.431Y6.179Z0.933F100.0(GCodeLinearMoveXValYValZValFVal)
G01X36.431Y0.0Z0.933F840.0(GCodeLinearMoveXValYValZValFVal)
G01X37.416Y0.0Z0.933(GCodeLinearMoveXValYValZVal)
G01X37.416Y6.179Z0.933(GCodeLinearMoveXValYValZVal)
G01X37.416Y6.279Z2.68F100.0(GCodeLinearMoveXValYValZValFVal)
G01X37.416Y6.379Z2.78F840.0(GCodeLinearMoveXValYValZValFVal)
G01X37.416Y10.266Z2.799(GCodeLinearMoveXValYValZVal)
G01X37.416Y10.365Z2.776(GCodeLinearMoveXValYValZVal)
G01X37.416Y10.565Z2.525(GCodeLinearMoveXValYValZVal)
G01X37.416Y10.664Z2.5(GCodeLinearMoveXValYValZVal)
G01X37.416Y12.856Z2.5(GCodeLinearMoveXValYValZVal)
G01X37.416Y12.955Z2.525(GCodeLinearMoveXValYValZVal)
G01X37.416Y13.155Z2.776(GCodeLinearMoveXValYValZVal)
G01X37.416Y13.254Z2.799(GCodeLinearMoveXValYValZVal)
G01X37.416Y17.141Z2.78(GCodeLinearMoveXValYValZVal)
G01X37.416Y17.241Z2.68(GCodeLinearMoveXValYValZVal)
G01X37.416Y17.341Z0.933F100.0(GCodeLinearMoveXValYValZValFVal)
G01X37.416Y23.52Z0.933F840.0(GCodeLinearMoveXValYValZValFVal)
G01X38.401Y23.52Z0.933(GCodeLinearMoveXValYValZVal)
G01X38.401Y17.341Z0.933(GCodeLinearMoveXValYValZVal)
G01X38.401Y17.241Z2.68F100.0(GCodeLinearMoveXValYValZValFVal)
G01X38.401Y17.141Z2.78F840.0(GCodeLinearMoveXValYValZValFVal)
G01X38.401Y13.254Z2.799(GCodeLinearMoveXValYValZVal)
G01X38.401Y13.155Z2.776(GCodeLinearMoveXValYValZVal)
G01X38.401Y12.955Z2.525(GCodeLinearMoveXValYValZVal)
G01X38.401Y12.856Z2.5(GCodeLinearMoveXValYValZVal)
G01X38.401Y10.664Z2.5(GCodeLinearMoveXValYValZVal)
G01X38.401Y10.565Z2.525(GCodeLinearMoveXValYValZVal)
G01X38.401Y10.365Z2.776(GCodeLinearMoveXValYValZVal)
G01X38.401Y10.266Z2.799(GCodeLinearMoveXValYValZVal)
G01X38.401Y6.379Z2.78(GCodeLinearMoveXValYValZVal)
G01X38.401Y6.279Z2.68(GCodeLinearMoveXValYValZVal)
G01X38.401Y6.179Z0.933F100.0(GCodeLinearMoveXValYValZValFVal)
G01X38.401Y0.0Z0.933F840.0(GCodeLinearMoveXValYValZValFVal)
G01X39.385Y0.0Z0.933(GCodeLinearMoveXValYValZVal)
G01X39.385Y6.179Z0.933(GCodeLinearMoveXValYValZVal)
G01X39.385Y6.279Z2.68F100.0(GCodeLinearMoveXValYValZValFVal)
G01X39.385Y6.379Z2.78F840.0(GCodeLinearMoveXValYValZValFVal)
G01X39.385Y10.266Z2.799(GCodeLinearMoveXValYValZVal)
G01X39.385Y10.365Z2.776(GCodeLinearMoveXValYValZVal)
G01X39.385Y10.565Z2.525(GCodeLinearMoveXValYValZVal)
G01X39.385Y10.664Z2.5(GCodeLinearMoveXValYValZVal)
G01X39.385Y12.856Z2.5(GCodeLinearMoveXValYValZVal)
G01X39.385Y12.955Z2.525(GCodeLinearMoveXValYValZVal)
G01X39.385Y13.155Z2.776(GCodeLinearMoveXValYValZVal)
G01X39.385Y13.254Z2.799(GCodeLinearMoveXValYValZVal)
G01X39.385Y17.141Z2.78(GCodeLinearMoveXValYValZVal)
G01X39.385Y17.241Z2.68(GCodeLinearMoveXValYValZVal)
G01X39.385Y17.341Z0.933F100.0(GCodeLinearMoveXValYValZValFVal)
G01X39.385Y23.52Z0.933F840.0(GCodeLinearMoveXValYValZValFVal)
G01X40.37Y23.52Z0.933(GCodeLinearMoveXValYValZVal)
G01X40.37Y17.341Z0.933(GCodeLinearMoveXValYValZVal)
G01X40.37Y17.241Z2.68F100.0(GCodeLinearMoveXValYValZValFVal)
G01X40.37Y17.141Z2.78F840.0(GCodeLinearMoveXValYValZValFVal)
G01X40.37Y13.254Z2.799(GCodeLinearMoveXValYValZVal)
G01X40.37Y13.155Z2.776(GCodeLinearMoveXValYValZVal)
G01X40.37Y12.955Z2.525(GCodeLinearMoveXValYValZVal)
G01X40.37Y12.856Z2.5(GCodeLinearMoveXValYValZVal)
G01X40.37Y10.664Z2.5(GCodeLinearMoveXValYValZVal)
G01X40.37Y10.565Z2.525(GCodeLinearMoveXValYValZVal)
G01X40.37Y10.365Z2.776(GCodeLinearMoveXValYValZVal)
G01X40.37Y10.266Z2.799(GCodeLinearMoveXValYValZVal)
G01X40.37Y6.379Z2.78(GCodeLinearMoveXValYValZVal)
G01X40.37Y6.279Z2.68(GCodeLinearMoveXValYValZVal)
G01X40.37Y6.179Z0.933F100.0(GCodeLinearMoveXValYValZValFVal)
G01X40.37Y0.0Z0.933F840.0(GCodeLinearMoveXValYValZValFVal)
G01X41.355Y0.0Z0.933(GCodeLinearMoveXValYValZVal)
G01X41.355Y6.179Z0.933(GCodeLinearMoveXValYValZVal)
G01X41.355Y6.279Z2.68F100.0(GCodeLinearMoveXValYValZValFVal)
G01X41.355Y6.379Z2.78F840.0(GCodeLinearMoveXValYValZValFVal)
G01X41.355Y10.266Z2.799(GCodeLinearMoveXValYValZVal)
G01X41.355Y10.365Z2.777(GCodeLinearMoveXValYValZVal)
G01X41.355Y10.565Z2.525(GCodeLinearMoveXValYValZVal)
G01X41.355Y10.664Z2.5(GCodeLinearMoveXValYValZVal)
G01X41.355Y11.262Z2.491(GCodeLinearMoveXValYValZVal)
G01X41.355Y11.362Z2.448(GCodeLinearMoveXValYValZVal)
G01X41.355Y11.462Z2.318(GCodeLinearMoveXValYValZVal)
G01X41.355Y11.561Z0.933F100.0(GCodeLinearMoveXValYValZValFVal)
G01X41.355Y11.959Z0.933F840.0(GCodeLinearMoveXValYValZValFVal)
G01X41.355Y12.058Z2.318F100.0(GCodeLinearMoveXValYValZValFVal)
G01X41.355Y12.158Z2.448F840.0(GCodeLinearMoveXValYValZValFVal)
G01X41.355Y12.258Z2.491(GCodeLinearMoveXValYValZVal)
G01X41.355Y12.955Z2.525(GCodeLinearMoveXValYValZVal)
G01X41.355Y13.155Z2.777(GCodeLinearMoveXValYValZVal)
G01X41.355Y13.254Z2.799(GCodeLinearMoveXValYValZVal)
G01X41.355Y17.141Z2.78(GCodeLinearMoveXValYValZVal)
G01X41.355Y17.241Z2.68(GCodeLinearMoveXValYValZVal)
G01X41.355Y17.341Z0.933F100.0(GCodeLinearMoveXValYValZValFVal)
G01X41.355Y23.52Z0.933F840.0(GCodeLinearMoveXValYValZValFVal)
G01X42.339Y23.52Z0.933(GCodeLinearMoveXValYValZVal)
G01X42.339Y17.241Z0.933(GCodeLinearMoveXValYValZVal)
G01X42.339Y17.141Z2.761F100.0(GCodeLinearMoveXValYValZValFVal)
G01X42.339Y17.042Z2.798F840.0(GCodeLinearMoveXValYValZValFVal)
G01X42.339Y13.055Z2.788(GCodeLinearMoveXValYValZVal)
G01X42.339Y12.955Z2.727(GCodeLinearMoveXValYValZVal)
G01X42.339Y12.856Z2.568(GCodeLinearMoveXValYValZVal)
G01X42.339Y12.756Z2.511(GCodeLinearMoveXValYValZVal)
G01X42.339Y11.859Z2.473(GCodeLinearMoveXValYValZVal)
G01X42.339Y11.661Z2.473(GCodeLinearMoveXValYValZVal)
G01X42.339Y11.262Z2.5(GCodeLinearMoveXValYValZVal)
G01X42.339Y10.764Z2.511(GCodeLinearMoveXValYValZVal)
G01X42.339Y10.664Z2.568(GCodeLinearMoveXValYValZVal)
G01X42.339Y10.565Z2.727(GCodeLinearMoveXValYValZVal)
G01X42.339Y10.465Z2.788(GCodeLinearMoveXValYValZVal)
G01X42.339Y6.478Z2.798(GCodeLinearMoveXValYValZVal)
G01X42.339Y6.379Z2.761(GCodeLinearMoveXValYValZVal)
G01X42.339Y6.279Z0.933F100.0(GCodeLinearMoveXValYValZValFVal)
G01X42.339Y0.0Z0.933F840.0(GCodeLinearMoveXValYValZValFVal)
G01X43.324Y0.0Z0.933(GCodeLinearMoveXValYValZVal)
G01X43.324Y6.478Z0.933(GCodeLinearMoveXValYValZVal)
G01X43.324Y6.578Z2.756F100.0(GCodeLinearMoveXValYValZValFVal)
G01X43.324Y6.678Z2.796F840.0(GCodeLinearMoveXValYValZValFVal)
G01X43.324Y16.842Z2.796(GCodeLinearMoveXValYValZVal)
G01X43.324Y16.942Z2.756(GCodeLinearMoveXValYValZVal)
G01X43.324Y17.042Z0.933F100.0(GCodeLinearMoveXValYValZValFVal)
G01X43.324Y23.52Z0.933F840.0(GCodeLinearMoveXValYValZValFVal)
G01X44.309Y23.52Z0.933(GCodeLinearMoveXValYValZVal)
G01X44.309Y16.643Z0.933(GCodeLinearMoveXValYValZVal)
G01X44.309Y16.543Z2.751F100.0(GCodeLinearMoveXValYValZValFVal)
G01X44.309Y16.444Z2.794F840.0(GCodeLinearMoveXValYValZValFVal)
G01X44.309Y7.076Z2.794(GCodeLinearMoveXValYValZVal)
G01X44.309Y6.977Z2.751(GCodeLinearMoveXValYValZVal)
G01X44.309Y6.877Z0.933F100.0(GCodeLinearMoveXValYValZValFVal)
G01X44.309Y0.0Z0.933F840.0(GCodeLinearMoveXValYValZValFVal)
G01X45.293Y0.0Z0.933(GCodeLinearMoveXValYValZVal)
G01X45.293Y7.475Z0.933(GCodeLinearMoveXValYValZVal)
G01X45.293Y7.575Z2.676F100.0(GCodeLinearMoveXValYValZValFVal)
G01X45.293Y7.674Z2.767F840.0(GCodeLinearMoveXValYValZValFVal)
G01X45.293Y7.774Z2.795(GCodeLinearMoveXValYValZVal)
G01X45.293Y15.746Z2.795(GCodeLinearMoveXValYValZVal)
G01X45.293Y15.846Z2.767(GCodeLinearMoveXValYValZVal)
G01X45.293Y15.945Z2.676(GCodeLinearMoveXValYValZVal)
G01X45.293Y16.045Z0.933F100.0(GCodeLinearMoveXValYValZValFVal)
G01X45.293Y23.52Z0.933F840.0(GCodeLinearMoveXValYValZValFVal)
G01X46.278Y23.52Z0.933(GCodeLinearMoveXValYValZVal)
G01X46.278Y14.949Z0.933(GCodeLinearMoveXValYValZVal)
G01X46.278Y14.849Z2.679F100.0(GCodeLinearMoveXValYValZValFVal)
G01X46.278Y14.749Z2.751F840.0(GCodeLinearMoveXValYValZValFVal)
G01X46.278Y14.55Z2.797(GCodeLinearMoveXValYValZVal)
G01X46.278Y8.87Z2.783(GCodeLinearMoveXValYValZVal)
G01X46.278Y8.771Z2.751(GCodeLinearMoveXValYValZVal)
G01X46.278Y8.671Z2.679(GCodeLinearMoveXValYValZVal)
G01X46.278Y8.571Z0.933F100.0(GCodeLinearMoveXValYValZValFVal)
G01X46.278Y0.0Z0.933F840.0(GCodeLinearMoveXValYValZValFVal)
G01X47.263Y0.0Z0.933(GCodeLinearMoveXValYValZVal)
G01X47.263Y23.52Z0.933(GCodeLinearMoveXValYValZVal)
G00Z4.0(GCodeFastMoveZVal)
G00X0.0Y0.0(GCodeFastMoveXValYVal)
G00Z1.133(GCodeFastMoveZVal)
G01Z0.0F100.0(GCodeLinearMoveZValFVal)
G01X0.0Y23.52Z0.0F840.0(GCodeLinearMoveXValYValZValFVal)
G01X0.985Y23.52Z0.0(GCodeLinearMoveXValYValZVal)
G01X0.985Y16.543Z0.0(GCodeLinearMoveXValYValZVal)
G01X0.985Y16.444Z2.623F100.0(GCodeLinearMoveXValYValZValFVal)
G01X0.985Y16.344Z2.716F840.0(GCodeLinearMoveXValYValZValFVal)
G01X0.985Y16.145Z2.779(GCodeLinearMoveXValYValZVal)
G01X0.985Y15.646Z2.799(GCodeLinearMoveXValYValZVal)
G01X0.985Y7.475Z2.793(GCodeLinearMoveXValYValZVal)
G01X0.985Y7.276Z2.755(GCodeLinearMoveXValYValZVal)
G01X0.985Y7.176Z2.716(GCodeLinearMoveXValYValZVal)
G01X0.985Y7.076Z2.623(GCodeLinearMoveXValYValZVal)
G01X0.985Y6.977Z0.0F100.0(GCodeLinearMoveXValYValZValFVal)
G01X0.985Y0.0Z0.0F840.0(GCodeLinearMoveXValYValZValFVal)
G01X1.97Y0.0Z0.0(GCodeLinearMoveXValYValZVal)
G01X1.97Y5.183Z0.0(GCodeLinearMoveXValYValZVal)
G01X1.97Y5.283Z2.672F100.0(GCodeLinearMoveXValYValZValFVal)
G01X1.97Y5.382Z2.75F840.0(GCodeLinearMoveXValYValZValFVal)
G01X1.97Y5.582Z2.796(GCodeLinearMoveXValYValZVal)
G01X1.97Y17.938Z2.796(GCodeLinearMoveXValYValZVal)
G01X1.97Y18.138Z2.75(GCodeLinearMoveXValYValZVal)
G01X1.97Y18.237Z2.672(GCodeLinearMoveXValYValZVal)
G01X1.97Y18.337Z0.0F100.0(GCodeLinearMoveXValYValZValFVal)
G01X1.97Y23.52Z0.0F840.0(GCodeLinearMoveXValYValZValFVal)
G01X2.954Y23.52Z0.0(GCodeLinearMoveXValYValZVal)
G01X2.954Y19.633Z0.0(GCodeLinearMoveXValYValZVal)
G01X2.954Y19.533Z2.642F100.0(GCodeLinearMoveXValYValZValFVal)
G01X2.954Y19.433Z2.749F840.0(GCodeLinearMoveXValYValZValFVal)
G01X2.954Y19.334Z2.786(GCodeLinearMoveXValYValZVal)
G01X2.954Y4.286Z2.799(GCodeLinearMoveXValYValZVal)
G01X2.954Y4.186Z2.786(GCodeLinearMoveXValYValZVal)
G01X2.954Y4.087Z2.749(GCodeLinearMoveXValYValZVal)
G01X2.954Y3.987Z2.642(GCodeLinearMoveXValYValZVal)
G01X2.954Y3.887Z0.0F100.0(GCodeLinearMoveXValYValZValFVal)
G01X2.954Y0.0Z0.0F840.0(GCodeLinearMoveXValYValZValFVal)
G01X3.939Y0.0Z0.0(GCodeLinearMoveXValYValZVal)
G01X3.939Y2.99Z0.0(GCodeLinearMoveXValYValZVal)
G01X3.939Y3.09Z2.751F100.0(GCodeLinearMoveXValYValZValFVal)
G01X3.939Y3.19Z2.792F840.0(GCodeLinearMoveXValYValZValFVal)
G01X3.939Y20.33Z2.792(GCodeLinearMoveXValYValZVal)
G01X3.939Y20.43Z2.751(GCodeLinearMoveXValYValZVal)
G01X3.939Y20.53Z0.0F100.0(GCodeLinearMoveXValYValZValFVal)
G01X3.939Y23.52Z0.0F840.0(GCodeLinearMoveXValYValZValFVal)
G01X4.924Y23.52Z0.0(GCodeLinearMoveXValYValZVal)
G01X4.924Y21.327Z0.0(GCodeLinearMoveXValYValZVal)
G01X4.924Y21.227Z2.749F100.0(GCodeLinearMoveXValYValZValFVal)
G01X4.924Y21.128Z2.793F840.0(GCodeLinearMoveXValYValZValFVal)
G01X4.924Y15.248Z2.787(GCodeLinearMoveXValYValZVal)
G01X4.924Y15.048Z2.73(GCodeLinearMoveXValYValZVal)
G01X4.924Y14.849Z2.57(GCodeLinearMoveXValYValZVal)
G01X4.924Y14.65Z2.514(GCodeLinearMoveXValYValZVal)
G01X4.924Y8.97Z2.504(GCodeLinearMoveXValYValZVal)
G01X4.924Y8.771Z2.532(GCodeLinearMoveXValYValZVal)
G01X4.924Y8.671Z2.57(GCodeLinearMoveXValYValZVal)
G01X4.924Y8.472Z2.73(GCodeLinearMoveXValYValZVal)
G01X4.924Y8.272Z2.787(GCodeLinearMoveXValYValZVal)
G01X4.924Y2.392Z2.793(GCodeLinearMoveXValYValZVal)
G01X4.924Y2.293Z2.749(GCodeLinearMoveXValYValZVal)
G01X4.924Y2.193Z0.0F100.0(GCodeLinearMoveXValYValZValFVal)
G01X4.924Y0.0Z0.0F840.0(GCodeLinearMoveXValYValZValFVal)
G01X5.908Y0.0Z0.0(GCodeLinearMoveXValYValZVal)
G01X5.908Y1.495Z0.0(GCodeLinearMoveXValYValZVal)
G01X5.908Y1.595Z2.692F100.0(GCodeLinearMoveXValYValZValFVal)
G01X5.908Y1.695Z2.777F840.0(GCodeLinearMoveXValYValZValFVal)
G01X5.908Y1.794Z2.799(GCodeLinearMoveXValYValZVal)
G01X5.908Y6.777Z2.791(GCodeLinearMoveXValYValZVal)
G01X5.908Y6.877Z2.761(GCodeLinearMoveXValYValZVal)
G01X5.908Y6.977Z2.689(GCodeLinearMoveXValYValZVal)
G01X5.908Y7.076Z2.563(GCodeLinearMoveXValYValZVal)
G01X5.908Y7.176Z2.518(GCodeLinearMoveXValYValZVal)
G01X5.908Y7.575Z2.5(GCodeLinearMoveXValYValZVal)
G01X5.908Y16.344Z2.518(GCodeLinearMoveXValYValZVal)
G01X5.908Y16.444Z2.563(GCodeLinearMoveXValYValZVal)
G01X5.908Y16.543Z2.689(GCodeLinearMoveXValYValZVal)
G01X5.908Y16.643Z2.761(GCodeLinearMoveXValYValZVal)
G01X5.908Y16.743Z2.791(GCodeLinearMoveXValYValZVal)
G01X5.908Y21.726Z2.799(GCodeLinearMoveXValYValZVal)
G01X5.908Y21.825Z2.777(GCodeLinearMoveXValYValZVal)
G01X5.908Y21.925Z2.692(GCodeLinearMoveXValYValZVal)
G01X5.908Y22.025Z0.0F100.0(GCodeLinearMoveXValYValZValFVal)
G01X5.908Y23.52Z0.0F840.0(GCodeLinearMoveXValYValZValFVal)
G01X6.893Y23.52Z0.0(GCodeLinearMoveXValYValZVal)
G01X6.893Y22.523Z0.0(GCodeLinearMoveXValYValZVal)
G01X6.893Y22.423Z2.696F100.0(GCodeLinearMoveXValYValZValFVal)
G01X6.893Y22.324Z2.78F840.0(GCodeLinearMoveXValYValZValFVal)
G01X6.893Y17.839Z2.799(GCodeLinearMoveXValYValZVal)
G01X6.893Y17.739Z2.796(GCodeLinearMoveXValYValZVal)
G01X6.893Y17.64Z2.77(GCodeLinearMoveXValYValZVal)
G01X6.893Y17.54Z2.681(GCodeLinearMoveXValYValZVal)
G01X6.893Y17.44Z2.552(GCodeLinearMoveXValYValZVal)
G01X6.893Y17.341Z2.509(GCodeLinearMoveXValYValZVal)
G01X6.893Y6.179Z2.509(GCodeLinearMoveXValYValZVal)
G01X6.893Y6.08Z2.552(GCodeLinearMoveXValYValZVal)
G01X6.893Y5.98Z2.68(GCodeLinearMoveXValYValZVal)
G01X6.893Y5.88Z2.77(GCodeLinearMoveXValYValZVal)
G01X6.893Y5.781Z2.796(GCodeLinearMoveXValYValZVal)
G01X6.893Y1.296Z2.799(GCodeLinearMoveXValYValZVal)
G01X6.893Y1.196Z2.78(GCodeLinearMoveXValYValZVal)
G01X6.893Y1.097Z2.696(GCodeLinearMoveXValYValZVal)
G01X6.893Y0.997Z0.0F100.0(GCodeLinearMoveXValYValZValFVal)
G01X6.893Y0.0Z0.0F840.0(GCodeLinearMoveXValYValZValFVal)
G01X7.878Y0.0Z0.0(GCodeLinearMoveXValYValZVal)
G01X7.878Y0.598Z0.0(GCodeLinearMoveXValYValZVal)
G01X7.878Y0.698Z2.685F100.0(GCodeLinearMoveXValYValZValFVal)
G01X7.878Y0.798Z2.779F840.0(GCodeLinearMoveXValYValZValFVal)
G01X7.878Y0.897Z2.799(GCodeLinearMoveXValYValZVal)
G01X7.878Y5.083Z2.798(GCodeLinearMoveXValYValZVal)
G01X7.878Y5.183Z2.773(GCodeLinearMoveXValYValZVal)
G01X7.878Y5.382Z2.542(GCodeLinearMoveXValYValZVal)
G01X7.878Y5.482Z2.504(GCodeLinearMoveXValYValZVal)
G01X7.878Y18.038Z2.504(GCodeLinearMoveXValYValZVal)
G01X7.878Y18.138Z2.542(GCodeLinearMoveXValYValZVal)
G01X7.878Y18.337Z2.773(GCodeLinearMoveXValYValZVal)
G01X7.878Y18.437Z2.798(GCodeLinearMoveXValYValZVal)
G01X7.878Y22.623Z2.799(GCodeLinearMoveXValYValZVal)
G01X7.878Y22.722Z2.779(GCodeLinearMoveXValYValZVal)
G01X7.878Y22.822Z2.685(GCodeLinearMoveXValYValZVal)
G01X7.878Y22.922Z0.0F100.0(GCodeLinearMoveXValYValZValFVal)
G01X7.878Y23.52Z0.0F840.0(GCodeLinearMoveXValYValZValFVal)
G01X8.862Y23.52Z0.0(GCodeLinearMoveXValYValZVal)
G01X8.862Y23.221Z0.0(GCodeLinearMoveXValYValZVal)
G01X8.862Y23.121Z2.68F100.0(GCodeLinearMoveXValYValZValFVal)
G01X8.862Y23.021Z2.779F840.0(GCodeLinearMoveXValYValZValFVal)
G01X8.862Y22.922Z2.799(GCodeLinearMoveXValYValZVal)
G01X8.862Y18.935Z2.799(GCodeLinearMoveXValYValZVal)
G01X8.862Y18.835Z2.778(GCodeLinearMoveXValYValZVal)
G01X8.862Y18.636Z2.538(GCodeLinearMoveXValYValZVal)
G01X8.862Y18.536Z2.502(GCodeLinearMoveXValYValZVal)
G01X8.862Y4.984Z2.502(GCodeLinearMoveXValYValZVal)
G01X8.862Y4.884Z2.538(GCodeLinearMoveXValYValZVal)
G01X8.862Y4.685Z2.778(GCodeLinearMoveXValYValZVal)
G01X8.862Y4.585Z2.799(GCodeLinearMoveXValYValZVal)
G01X8.862Y0.499Z2.779(GCodeLinearMoveXValYValZVal)
G01X8.862Y0.399Z2.68(GCodeLinearMoveXValYValZVal)
G01X8.862Y0.299Z0.0F100.0(GCodeLinearMoveXValYValZValFVal)
G01X8.862Y0.0Z0.0F840.0(GCodeLinearMoveXValYValZValFVal)
G01X9.847Y0.0Z0.0(GCodeLinearMoveXValYValZVal)
G01X9.847Y0.1Z0.0(GCodeLinearMoveXValYValZVal)
G01X9.847Y0.2Z2.698F100.0(GCodeLinearMoveXValYValZValFVal)
G01X9.847Y0.299Z2.783F840.0(GCodeLinearMoveXValYValZValFVal)
G01X9.847Y4.286Z2.797(GCodeLinearMoveXValYValZVal)
G01X9.847Y4.386Z2.763(GCodeLinearMoveXValYValZVal)
G01X9.847Y4.485Z2.602(GCodeLinearMoveXValYValZVal)
G01X9.847Y4.585Z2.518(GCodeLinearMoveXValYValZVal)
G01X9.847Y4.784Z2.5(GCodeLinearMoveXValYValZVal)
G01X9.847Y18.935Z2.518(GCodeLinearMoveXValYValZVal)
G01X9.847Y19.035Z2.602(GCodeLinearMoveXValYValZVal)
G01X9.847Y19.134Z2.763(GCodeLinearMoveXValYValZVal)
G01X9.847Y19.234Z2.797(GCodeLinearMoveXValYValZVal)
G01X9.847Y23.221Z2.783(GCodeLinearMoveXValYValZVal)
G01X9.847Y23.32Z2.698(GCodeLinearMoveXValYValZVal)
G01X9.847Y23.42Z0.0F100.0(GCodeLinearMoveXValYValZValFVal)
G01X9.847Y23.52Z0.0F840.0(GCodeLinearMoveXValYValZValFVal)
G01X10.831Y23.52Z0.0(GCodeLinearMoveXValYValZVal)
G01X10.831Y23.42Z2.726F100.0(GCodeLinearMoveXValYValZValFVal)
G01X10.831Y23.32Z2.792F840.0(GCodeLinearMoveXValYValZValFVal)
G01X10.831Y19.433Z2.799(GCodeLinearMoveXValYValZVal)
G01X10.831Y19.334Z2.772(GCodeLinearMoveXValYValZVal)
G01X10.831Y19.234Z2.63(GCodeLinearMoveXValYValZVal)
G01X10.831Y19.134Z2.522(GCodeLinearMoveXValYValZVal)
G01X10.831Y19.035Z2.5(GCodeLinearMoveXValYValZVal)
G01X10.831Y4.485Z2.5(GCodeLinearMoveXValYValZVal)
G01X10.831Y4.386Z2.522(GCodeLinearMoveXValYValZVal)
G01X10.831Y4.286Z2.63(GCodeLinearMoveXValYValZVal)
G01X10.831Y4.186Z2.772(GCodeLinearMoveXValYValZVal)
G01X10.831Y4.087Z2.799(GCodeLinearMoveXValYValZVal)
G01X10.831Y0.2Z2.792(GCodeLinearMoveXValYValZVal)
G01X10.831Y0.1Z2.727(GCodeLinearMoveXValYValZVal)
G01X10.831Y0.0Z0.0F100.0(GCodeLinearMoveXValYValZValFVal)
G01X11.815Y0.0Z0.0F840.0(GCodeLinearMoveXValYValZValFVal)
G01X11.815Y0.1Z2.764F100.0(GCodeLinearMoveXValYValZValFVal)
G01X11.815Y0.2Z2.798F840.0(GCodeLinearMoveXValYValZValFVal)
G01X11.815Y4.087Z2.789(GCodeLinearMoveXValYValZVal)
G01X11.815Y4.186Z2.719(GCodeLinearMoveXValYValZVal)
G01X11.815Y4.286Z2.55(GCodeLinearMoveXValYValZVal)
G01X11.815Y4.386Z2.503(GCodeLinearMoveXValYValZVal)
G01X11.815Y19.134Z2.503(GCodeLinearMoveXValYValZVal)
G01X11.815Y19.234Z2.55(GCodeLinearMoveXValYValZVal)
G01X11.815Y19.334Z2.719(GCodeLinearMoveXValYValZVal)
G01X11.815Y19.433Z2.789(GCodeLinearMoveXValYValZVal)
G01X11.815Y23.32Z2.798(GCodeLinearMoveXValYValZVal)
G01X11.815Y23.42Z2.764(GCodeLinearMoveXValYValZVal)
G01X11.815Y23.52Z0.0F100.0(GCodeLinearMoveXValYValZValFVal)
G01X12.8Y23.52Z0.0F840.0(GCodeLinearMoveXValYValZValFVal)
G01X12.8Y23.42Z0.0(GCodeLinearMoveXValYValZVal)
G01X12.8Y23.32Z2.761F100.0(GCodeLinearMoveXValYValZValFVal)
G01X12.8Y23.221Z2.797F840.0(GCodeLinearMoveXValYValZValFVal)
G01X12.8Y19.035Z2.797(GCodeLinearMoveXValYValZVal)
G01X12.8Y18.935Z2.779(GCodeLinearMoveXValYValZVal)
G01X12.8Y18.835Z2.729(GCodeLinearMoveXValYValZVal)
G01X12.8Y18.736Z2.614(GCodeLinearMoveXValYValZVal)
G01X12.8Y18.636Z2.547(GCodeLinearMoveXValYValZVal)
G01X12.8Y18.437Z2.504(GCodeLinearMoveXValYValZVal)
G01X12.8Y5.083Z2.504(GCodeLinearMoveXValYValZVal)
G01X12.8Y4.884Z2.547(GCodeLinearMoveXValYValZVal)
G01X12.8Y4.784Z2.614(GCodeLinearMoveXValYValZVal)
G01X12.8Y4.685Z2.729(GCodeLinearMoveXValYValZVal)
G01X12.8Y4.585Z2.779(GCodeLinearMoveXValYValZVal)
G01X12.8Y4.386Z2.799(GCodeLinearMoveXValYValZVal)
G01X12.8Y0.299Z2.797(GCodeLinearMoveXValYValZVal)
G01X12.8Y0.2Z2.761(GCodeLinearMoveXValYValZVal)
G01X12.8Y0.1Z0.0F100.0(GCodeLinearMoveXValYValZValFVal)
G01X12.8Y0.0Z0.0F840.0(GCodeLinearMoveXValYValZValFVal)
G01X13.784Y0.0Z0.0(GCodeLinearMoveXValYValZVal)
G01X13.784Y0.399Z0.0(GCodeLinearMoveXValYValZVal)
G01X13.784Y0.499Z2.761F100.0(GCodeLinearMoveXValYValZValFVal)
G01X13.784Y0.598Z2.797F840.0(GCodeLinearMoveXValYValZValFVal)
G01X13.784Y7.973Z2.796(GCodeLinearMoveXValYValZVal)
G01X13.784Y8.173Z2.748(GCodeLinearMoveXValYValZVal)
G01X13.784Y8.272Z2.672(GCodeLinearMoveXValYValZVal)
G01X13.784Y8.372Z2.56(GCodeLinearMoveXValYValZVal)
G01X13.784Y8.472Z2.521(GCodeLinearMoveXValYValZVal)
G01X13.784Y8.771Z2.5(GCodeLinearMoveXValYValZVal)
G01X13.784Y14.949Z2.504(GCodeLinearMoveXValYValZVal)
G01X13.784Y15.048Z2.521(GCodeLinearMoveXValYValZVal)
G01X13.784Y15.148Z2.56(GCodeLinearMoveXValYValZVal)
G01X13.784Y15.248Z2.674(GCodeLinearMoveXValYValZVal)
G01X13.784Y15.347Z2.75(GCodeLinearMoveXValYValZVal)
G01X13.784Y15.547Z2.796(GCodeLinearMoveXValYValZVal)
G01X13.784Y22.922Z2.797(GCodeLinearMoveXValYValZVal)
G01X13.784Y23.021Z2.761(GCodeLinearMoveXValYValZVal)
G01X13.784Y23.121Z0.0F100.0(GCodeLinearMoveXValYValZValFVal)
G01X13.784Y23.52Z0.0F840.0(GCodeLinearMoveXValYValZValFVal)
G01X14.769Y23.52Z0.0(GCodeLinearMoveXValYValZVal)
G01X14.769Y22.623Z0.0(GCodeLinearMoveXValYValZVal)
G01X14.769Y22.523Z2.751F100.0(GCodeLinearMoveXValYValZValFVal)
G01X14.769Y22.423Z2.793F840.0(GCodeLinearMoveXValYValZValFVal)
G01X14.769Y14.351Z2.798(GCodeLinearMoveXValYValZVal)
G01X14.769Y14.251Z2.775(GCodeLinearMoveXValYValZVal)
G01X14.769Y14.151Z2.702(GCodeLinearMoveXValYValZVal)
G01X14.769Y14.052Z2.556(GCodeLinearMoveXValYValZVal)
G01X14.769Y13.952Z2.511(GCodeLinearMoveXValYValZVal)
G01X14.769Y9.668Z2.5(GCodeLinearMoveXValYValZVal)
G01X14.769Y9.568Z2.511(GCodeLinearMoveXValYValZVal)
G01X14.769Y9.468Z2.556(GCodeLinearMoveXValYValZVal)
G01X14.769Y9.369Z2.703(GCodeLinearMoveXValYValZVal)
G01X14.769Y9.269Z2.775(GCodeLinearMoveXValYValZVal)
G01X14.769Y9.07Z2.799(GCodeLinearMoveXValYValZVal)
G01X14.769Y1.097Z2.793(GCodeLinearMoveXValYValZVal)
G01X14.769Y0.997Z2.751(GCodeLinearMoveXValYValZVal)
G01X14.769Y0.897Z0.0F100.0(GCodeLinearMoveXValYValZValFVal)
G01X14.769Y0.0Z0.0F840.0(GCodeLinearMoveXValYValZValFVal)
G01X15.754Y0.0Z0.0(GCodeLinearMoveXValYValZVal)
G01X15.754Y1.695Z0.0(GCodeLinearMoveXValYValZVal)
G01X15.754Y1.794Z2.715F100.0(GCodeLinearMoveXValYValZValFVal)
G01X15.754Y1.894Z2.775F840.0(GCodeLinearMoveXValYValZValFVal)
G01X15.754Y2.193Z2.799(GCodeLinearMoveXValYValZVal)
G01X15.754Y9.867Z2.79(GCodeLinearMoveXValYValZVal)
G01X15.754Y9.967Z2.734(GCodeLinearMoveXValYValZVal)
G01X15.754Y10.066Z2.566(GCodeLinearMoveXValYValZVal)
G01X15.754Y10.166Z2.509(GCodeLinearMoveXValYValZVal)
G01X15.754Y13.354Z2.509(GCodeLinearMoveXValYValZVal)
G01X15.754Y13.454Z2.566(GCodeLinearMoveXValYValZVal)
G01X15.754Y13.553Z2.735(GCodeLinearMoveXValYValZVal)
G01X15.754Y13.653Z2.79(GCodeLinearMoveXValYValZVal)
G01X15.754Y21.526Z2.796(GCodeLinearMoveXValYValZVal)
G01X15.754Y21.626Z2.775(GCodeLinearMoveXValYValZVal)
G01X15.754Y21.726Z2.715(GCodeLinearMoveXValYValZVal)
G01X15.754Y21.825Z0.0F100.0(GCodeLinearMoveXValYValZValFVal)
G01X15.754Y23.52Z0.0F840.0(GCodeLinearMoveXValYValZValFVal)
G01X16.738Y23.52Z0.0(GCodeLinearMoveXValYValZVal)
G01X16.738Y20.33Z0.0(GCodeLinearMoveXValYValZVal)
G01X16.738Y20.231Z2.71F100.0(GCodeLinearMoveXValYValZValFVal)
G01X16.738Y20.031Z2.78F840.0(GCodeLinearMoveXValYValZValFVal)
G01X16.738Y13.354Z2.799(GCodeLinearMoveXValYValZVal)
G01X16.738Y13.254Z2.767(GCodeLinearMoveXValYValZVal)
G01X16.738Y13.155Z2.621(GCodeLinearMoveXValYValZVal)
G01X16.738Y13.055Z2.518(GCodeLinearMoveXValYValZVal)
G01X16.738Y10.565Z2.5(GCodeLinearMoveXValYValZVal)
G01X16.738Y10.465Z2.518(GCodeLinearMoveXValYValZVal)
G01X16.738Y10.365Z2.621(GCodeLinearMoveXValYValZVal)
G01X16.738Y10.266Z2.767(GCodeLinearMoveXValYValZVal)
G01X16.738Y10.166Z2.798(GCodeLinearMoveXValYValZVal)
G01X16.738Y3.588Z2.794(GCodeLinearMoveXValYValZVal)
G01X16.738Y3.389Z2.755(GCodeLinearMoveXValYValZVal)
G01X16.738Y3.289Z2.71(GCodeLinearMoveXValYValZVal)
G01X16.738Y3.19Z0.0F100.0(GCodeLinearMoveXValYValZValFVal)
G01X16.738Y0.0Z0.0F840.0(GCodeLinearMoveXValYValZValFVal)
G01X17.723Y0.0Z0.0(GCodeLinearMoveXValYValZVal)
G01X17.723Y6.179Z0.0(GCodeLinearMoveXValYValZVal)
G01X17.723Y6.279Z2.697F100.0(GCodeLinearMoveXValYValZValFVal)
G01X17.723Y6.379Z2.783F840.0(GCodeLinearMoveXValYValZValFVal)
G01X17.723Y6.578Z2.799(GCodeLinearMoveXValYValZVal)
G01X17.723Y10.266Z2.799(GCodeLinearMoveXValYValZVal)
G01X17.723Y10.365Z2.776(GCodeLinearMoveXValYValZVal)
G01X17.723Y10.565Z2.525(GCodeLinearMoveXValYValZVal)
G01X17.723Y10.664Z2.5(GCodeLinearMoveXValYValZVal)
G01X17.723Y12.856Z2.5(GCodeLinearMoveXValYValZVal)
G01X17.723Y12.955Z2.525(GCodeLinearMoveXValYValZVal)
G01X17.723Y13.155Z2.776(GCodeLinearMoveXValYValZVal)
G01X17.723Y13.254Z2.799(GCodeLinearMoveXValYValZVal)
G01X17.723Y17.141Z2.783(GCodeLinearMoveXValYValZVal)
G01X17.723Y17.241Z2.697(GCodeLinearMoveXValYValZVal)
G01X17.723Y17.341Z0.0F100.0(GCodeLinearMoveXValYValZValFVal)
G01X17.723Y23.52Z0.0F840.0(GCodeLinearMoveXValYValZValFVal)
G01X18.708Y23.52Z0.0(GCodeLinearMoveXValYValZVal)
G01X18.708Y17.341Z0.0(GCodeLinearMoveXValYValZVal)
G01X18.708Y17.241Z2.68F100.0(GCodeLinearMoveXValYValZValFVal)
G01X18.708Y17.141Z2.78F840.0(GCodeLinearMoveXValYValZValFVal)
G01X18.708Y13.254Z2.799(GCodeLinearMoveXValYValZVal)
G01X18.708Y13.155Z2.776(GCodeLinearMoveXValYValZVal)
G01X18.708Y12.955Z2.524(GCodeLinearMoveXValYValZVal)
G01X18.708Y12.856Z2.5(GCodeLinearMoveXValYValZVal)
G01X18.708Y10.664Z2.5(GCodeLinearMoveXValYValZVal)
G01X18.708Y10.565Z2.524(GCodeLinearMoveXValYValZVal)
G01X18.708Y10.365Z2.776(GCodeLinearMoveXValYValZVal)
G01X18.708Y10.266Z2.799(GCodeLinearMoveXValYValZVal)
G01X18.708Y6.379Z2.78(GCodeLinearMoveXValYValZVal)
G01X18.708Y6.279Z2.68(GCodeLinearMoveXValYValZVal)
G01X18.708Y6.179Z0.0F100.0(GCodeLinearMoveXValYValZValFVal)
G01X18.708Y0.0Z0.0F840.0(GCodeLinearMoveXValYValZValFVal)
G01X19.692Y0.0Z0.0(GCodeLinearMoveXValYValZVal)
G01X19.692Y6.179Z0.0(GCodeLinearMoveXValYValZVal)
G01X19.692Y6.279Z2.68F100.0(GCodeLinearMoveXValYValZValFVal)
G01X19.692Y6.379Z2.78F840.0(GCodeLinearMoveXValYValZValFVal)
G01X19.692Y10.266Z2.799(GCodeLinearMoveXValYValZVal)
G01X19.692Y10.365Z2.776(GCodeLinearMoveXValYValZVal)
G01X19.692Y10.565Z2.525(GCodeLinearMoveXValYValZVal)
G01X19.692Y10.664Z2.5(GCodeLinearMoveXValYValZVal)
G01X19.692Y12.856Z2.5(GCodeLinearMoveXValYValZVal)
G01X19.692Y12.955Z2.525(GCodeLinearMoveXValYValZVal)
G01X19.692Y13.155Z2.776(GCodeLinearMoveXValYValZVal)
G01X19.692Y13.254Z2.799(GCodeLinearMoveXValYValZVal)
G01X19.692Y17.141Z2.78(GCodeLinearMoveXValYValZVal)
G01X19.692Y17.241Z2.68(GCodeLinearMoveXValYValZVal)
G01X19.692Y17.341Z0.0F100.0(GCodeLinearMoveXValYValZValFVal)
G01X19.692Y23.52Z0.0F840.0(GCodeLinearMoveXValYValZValFVal)
G01X20.677Y23.52Z0.0(GCodeLinearMoveXValYValZVal)
G01X20.677Y17.341Z0.0(GCodeLinearMoveXValYValZVal)
G01X20.677Y17.241Z2.68F100.0(GCodeLinearMoveXValYValZValFVal)
G01X20.677Y17.141Z2.78F840.0(GCodeLinearMoveXValYValZValFVal)
G01X20.677Y13.254Z2.799(GCodeLinearMoveXValYValZVal)
G01X20.677Y13.155Z2.776(GCodeLinearMoveXValYValZVal)
G01X20.677Y12.955Z2.525(GCodeLinearMoveXValYValZVal)
G01X20.677Y12.856Z2.5(GCodeLinearMoveXValYValZVal)
G01X20.677Y10.664Z2.5(GCodeLinearMoveXValYValZVal)
G01X20.677Y10.565Z2.525(GCodeLinearMoveXValYValZVal)
G01X20.677Y10.365Z2.776(GCodeLinearMoveXValYValZVal)
G01X20.677Y10.266Z2.799(GCodeLinearMoveXValYValZVal)
G01X20.677Y6.379Z2.78(GCodeLinearMoveXValYValZVal)
G01X20.677Y6.279Z2.68(GCodeLinearMoveXValYValZVal)
G01X20.677Y6.179Z0.0F100.0(GCodeLinearMoveXValYValZValFVal)
G01X20.677Y0.0Z0.0F840.0(GCodeLinearMoveXValYValZValFVal)
G01X21.662Y0.0Z0.0(GCodeLinearMoveXValYValZVal)
G01X21.662Y6.179Z0.0(GCodeLinearMoveXValYValZVal)
G01X21.662Y6.279Z2.68F100.0(GCodeLinearMoveXValYValZValFVal)
G01X21.662Y6.379Z2.78F840.0(GCodeLinearMoveXValYValZValFVal)
G01X21.662Y10.266Z2.799(GCodeLinearMoveXValYValZVal)
G01X21.662Y10.365Z2.776(GCodeLinearMoveXValYValZVal)
G01X21.662Y10.565Z2.525(GCodeLinearMoveXValYValZVal)
G01X21.662Y10.664Z2.5(GCodeLinearMoveXValYValZVal)
G01X21.662Y12.856Z2.5(GCodeLinearMoveXValYValZVal)
